(G-CODE GENERATED BY FLATCAM v8.994 - www.flatcam.org - Version Date: 2020/11/7)

(Name: MAX7219Board-B_Cu.gbr_iso_combined_cnc)
(Type: G-code from Geometry)
(Units: MM)

(Created on Wednesday, 21 June 2023 at 23:26)

(This preprocessor is the default preprocessor used by FlatCAM.)
(It is made to work with MACH3 compatible motion controllers.)

(TOOL DIAMETER: 0.3 mm)
(Feedrate_XY: 120.0 mm/min)
(Feedrate_Z: 60.0 mm/min)
(Feedrate rapids 1500.0 mm/min)

(Z_Cut: -0.095 mm)
(Z_Move: 2.0 mm)
(Z Start: None mm)
(Z End: 15.0 mm)
(X,Y End: None mm)
(Steps per circle: 64)
(Preprocessor Geometry: default)

(X range:    0.5305 ...   28.7695  mm)
(Y range:   -0.0195 ...   39.6495  mm)

(Spindle Speed: 0.0 RPM)
G21
G90
G94

G01 F120.00

M5
G00 Z15.0000
G00 X0.0000 Y0.0000
T1
M6    
(MSG, Change to Tool Dia = 0.3000)
M0
G00 Z15.0000

M03
G01 F120.00
G00 X7.0422 Y8.2301
G01 F60.00
G01 Z-0.0950
G01 F120.00
G01 X7.1198 Y8.1835
G01 X7.1199 Y4.6700
G01 X7.1220 Y4.6259
G01 X7.1285 Y4.5822
G01 X7.1392 Y4.5393
G01 X7.1541 Y4.4977
G01 X7.1730 Y4.4578
G01 X7.1957 Y4.4199
G01 X7.2220 Y4.3844
G01 X7.2517 Y4.3517
G01 X9.2543 Y2.3491
G01 X9.2844 Y2.3220
G01 X9.3199 Y2.2957
G01 X9.3578 Y2.2730
G01 X9.3910 Y2.2571
G01 X9.4012 Y2.2527
G01 X9.4323 Y2.2415
G01 X9.4464 Y2.2373
G01 X9.4822 Y2.2285
G01 X9.5259 Y2.2220
G01 X9.5700 Y2.2199
G01 X18.4600 Y2.2199
G01 X18.5041 Y2.2220
G01 X18.5406 Y2.2272
G01 X18.5550 Y2.2301
G01 X18.5907 Y2.2392
G01 X18.6254 Y2.2515
G01 X18.6390 Y2.2571
G01 X18.6722 Y2.2730
G01 X18.7039 Y2.2918
G01 X18.7161 Y2.3000
G01 X18.7456 Y2.3220
G01 X18.7730 Y2.3466
G01 X19.9165 Y3.4899
G01 X23.5437 Y3.4899
G01 X23.5805 Y3.4917
G01 X23.5914 Y3.4929
G01 X23.6278 Y3.4985
G01 X23.6636 Y3.5073
G01 X23.6777 Y3.5115
G01 X23.7123 Y3.5241
G01 X23.7522 Y3.5430
G01 X23.7901 Y3.5657
G01 X23.8198 Y3.5875
G01 X23.8311 Y3.5968
G01 X23.8583 Y3.6217
G01 X26.4009 Y6.1643
G01 X26.4280 Y6.1944
G01 X26.4543 Y6.2299
G01 X26.4770 Y6.2678
G01 X26.4929 Y6.3010
G01 X26.4973 Y6.3112
G01 X26.5085 Y6.3423
G01 X26.5127 Y6.3564
G01 X26.5215 Y6.3922
G01 X26.5280 Y6.4359
G01 X26.5301 Y6.4800
G01 X26.5301 Y7.7537
G01 X26.5285 Y7.7868
G01 X26.5276 Y7.7978
G01 X26.5222 Y7.8342
G01 X26.5199 Y7.8450
G01 X26.5108 Y7.8807
G01 X26.4985 Y7.9154
G01 X26.4944 Y7.9256
G01 X26.4787 Y7.9589
G01 X26.4734 Y7.9686
G01 X26.4582 Y7.9939
G01 X26.4500 Y8.0061
G01 X26.4280 Y8.0356
G01 X26.3983 Y8.0683
G01 X25.1283 Y9.3383
G01 X25.0956 Y9.3680
G01 X25.0601 Y9.3943
G01 X25.0286 Y9.4134
G01 X25.0156 Y9.4203
G01 X24.9823 Y9.4359
G01 X24.9407 Y9.4508
G01 X24.9050 Y9.4599
G01 X24.8906 Y9.4628
G01 X24.8578 Y9.4676
G01 X24.8468 Y9.4685
G01 X24.8100 Y9.4701
G01 X23.1622 Y9.4701
G01 X23.1536 Y9.4881
G01 X23.1501 Y9.4946
G01 X23.1054 Y9.5694
G01 X23.0994 Y9.5786
G01 X23.0430 Y9.6544
G01 X22.9771 Y9.7271
G01 X22.9044 Y9.7930
G01 X22.8316 Y9.8472
G01 X22.8194 Y9.8554
G01 X22.7478 Y9.8983
G01 X22.7348 Y9.9052
G01 X22.6527 Y9.9439
G01 X22.5603 Y9.9769
G01 X22.4651 Y10.0008
G01 X22.3753 Y10.0143
G01 X22.3607 Y10.0157
G01 X22.2774 Y10.0198
G01 X22.2626 Y10.0198
G01 X22.1720 Y10.0152
G01 X22.0749 Y10.0008
G01 X21.9797 Y9.9769
G01 X21.8942 Y9.9465
G01 X21.8806 Y9.9409
G01 X21.7986 Y9.9019
G01 X21.7206 Y9.8554
G01 X21.7084 Y9.8472
G01 X21.6356 Y9.7930
G01 X21.5629 Y9.7271
G01 X21.5018 Y9.6600
G01 X21.4925 Y9.6486
G01 X21.4385 Y9.5756
G01 X21.3881 Y9.4914
G01 X21.3461 Y9.4027
G01 X21.3154 Y9.3173
G01 X21.3111 Y9.3032
G01 X21.2892 Y9.2151
G01 X21.2757 Y9.1253
G01 X21.2743 Y9.1107
G01 X21.2700 Y9.0200
G01 X21.2748 Y8.9220
G01 X21.2892 Y8.8249
G01 X21.3111 Y8.7368
G01 X21.3154 Y8.7227
G01 X21.3461 Y8.6373
G01 X21.3848 Y8.5552
G01 X21.3917 Y8.5422
G01 X21.4385 Y8.4644
G01 X21.4970 Y8.3856
G01 X21.5629 Y8.3129
G01 X21.6300 Y8.2518
G01 X21.6414 Y8.2425
G01 X21.7144 Y8.1885
G01 X21.7986 Y8.1381
G01 X21.8873 Y8.0961
G01 X21.9797 Y8.0631
G01 X22.0677 Y8.0408
G01 X22.0822 Y8.0380
G01 X22.1647 Y8.0257
G01 X22.1793 Y8.0243
G01 X22.2700 Y8.0200
G01 X22.3607 Y8.0243
G01 X22.3717 Y8.0252
G01 X22.4578 Y8.0380
G01 X22.4723 Y8.0408
G01 X22.5603 Y8.0631
G01 X22.6458 Y8.0935
G01 X22.6594 Y8.0991
G01 X22.7414 Y8.1381
G01 X22.8194 Y8.1846
G01 X22.8286 Y8.1906
G01 X22.9044 Y8.2470
G01 X22.9718 Y8.3078
G01 X22.9822 Y8.3182
G01 X23.0406 Y8.3828
G01 X23.0475 Y8.3914
G01 X23.0972 Y8.4584
G01 X23.1035 Y8.4675
G01 X23.1501 Y8.5454
G01 X23.1536 Y8.5519
G01 X23.1622 Y8.5698
G01 X24.6235 Y8.5699
G01 X25.6299 Y7.5635
G01 X25.6299 Y6.6665
G01 X23.3535 Y4.3901
G01 X19.7300 Y4.3901
G01 X19.6859 Y4.3880
G01 X19.6494 Y4.3828
G01 X19.6350 Y4.3799
G01 X19.5993 Y4.3708
G01 X19.5646 Y4.3585
G01 X19.5510 Y4.3529
G01 X19.5178 Y4.3370
G01 X19.4861 Y4.3182
G01 X19.4739 Y4.3100
G01 X19.4444 Y4.2880
G01 X19.4170 Y4.2634
G01 X18.2735 Y3.1201
G01 X9.7565 Y3.1201
G01 X8.0201 Y4.8565
G01 X8.0201 Y8.1835
G01 X8.0916 Y8.2262
G01 X8.1038 Y8.2343
G01 X8.1727 Y8.2856
G01 X8.2364 Y8.3432
G01 X8.2468 Y8.3536
G01 X8.3044 Y8.4173
G01 X8.3557 Y8.4862
G01 X8.3638 Y8.4984
G01 X8.4078 Y8.5722
G01 X8.4447 Y8.6497
G01 X8.4503 Y8.6633
G01 X8.4791 Y8.7442
G01 X8.5001 Y8.8275
G01 X8.5030 Y8.8419
G01 X8.5154 Y8.9269
G01 X8.5200 Y9.0163
G01 X8.5198 Y9.0274
G01 X8.5154 Y9.1131
G01 X8.5030 Y9.1981
G01 X8.5001 Y9.2125
G01 X8.4791 Y9.2958
G01 X8.4503 Y9.3767
G01 X8.4447 Y9.3903
G01 X8.4078 Y9.4678
G01 X8.3638 Y9.5416
G01 X8.3557 Y9.5538
G01 X8.3044 Y9.6227
G01 X8.2468 Y9.6864
G01 X8.2364 Y9.6968
G01 X8.1727 Y9.7544
G01 X8.0978 Y9.8099
G01 X8.0178 Y9.8578
G01 X7.9335 Y9.8977
G01 X7.8458 Y9.9291
G01 X7.7553 Y9.9517
G01 X7.6631 Y9.9654
G01 X7.5700 Y9.9700
G01 X7.4769 Y9.9654
G01 X7.3847 Y9.9517
G01 X7.2942 Y9.9291
G01 X7.2065 Y9.8977
G01 X7.1222 Y9.8578
G01 X7.0422 Y9.8099
G01 X6.9673 Y9.7544
G01 X6.8982 Y9.6918
G01 X6.8356 Y9.6227
G01 X6.7801 Y9.5478
G01 X6.7322 Y9.4678
G01 X6.6923 Y9.3835
G01 X6.6609 Y9.2958
G01 X6.6383 Y9.2053
G01 X6.6246 Y9.1131
G01 X6.6200 Y9.0200
G01 X6.6246 Y8.9269
G01 X6.6383 Y8.8347
G01 X6.6609 Y8.7442
G01 X6.6923 Y8.6565
G01 X6.7322 Y8.5722
G01 X6.7801 Y8.4922
G01 X6.8356 Y8.4173
G01 X6.8982 Y8.3482
G01 X6.9673 Y8.2856
G01 X7.0422 Y8.2301
G00 Z2.0000
G00 X9.9414 Y5.8881
G01 F60.00
G01 Z-0.0950
G01 F120.00
G01 X9.9467 Y5.8978
G01 X9.9935 Y5.9756
G01 X10.0475 Y6.0486
G01 X10.0568 Y6.0600
G01 X10.1128 Y6.1218
G01 X10.1232 Y6.1322
G01 X10.1906 Y6.1930
G01 X10.2694 Y6.2515
G01 X10.3536 Y6.3019
G01 X10.4250 Y6.3359
G01 X10.4250 Y6.5552
G01 X10.4130 Y6.5519
G01 X10.2227 Y6.4632
G01 X10.0507 Y6.3428
G01 X9.9022 Y6.1943
G01 X9.7818 Y6.0223
G01 X9.6931 Y5.8320
G01 X9.6898 Y5.8200
G01 X9.9091 Y5.8200
G01 X9.9414 Y5.8881
G00 Z2.0000
G00 X9.9022 Y4.6457
G01 F60.00
G01 Z-0.0950
G01 F120.00
G01 X10.0507 Y4.4972
G01 X10.2227 Y4.3768
G01 X10.4130 Y4.2881
G01 X10.4250 Y4.2848
G01 X10.4250 Y4.5041
G01 X10.3536 Y4.5381
G01 X10.2694 Y4.5885
G01 X10.1906 Y4.6470
G01 X10.1179 Y4.7129
G01 X10.0520 Y4.7856
G01 X9.9935 Y4.8644
G01 X9.9431 Y4.9486
G01 X9.9091 Y5.0200
G01 X9.6898 Y5.0200
G01 X9.6931 Y5.0080
G01 X9.7818 Y4.8177
G01 X9.9022 Y4.6457
G00 Z2.0000
G00 X4.4532 Y11.1115
G01 F60.00
G01 Z-0.0950
G01 F120.00
G01 X4.4900 Y11.1099
G01 X6.7335 Y11.1099
G01 X6.7801 Y11.0322
G01 X6.8311 Y10.9631
G01 X6.8404 Y10.9518
G01 X6.8982 Y10.8882
G01 X6.9673 Y10.8256
G01 X7.0362 Y10.7743
G01 X7.0484 Y10.7662
G01 X7.1222 Y10.7222
G01 X7.2065 Y10.6823
G01 X7.2872 Y10.6532
G01 X7.3013 Y10.6489
G01 X7.3847 Y10.6283
G01 X7.4769 Y10.6146
G01 X7.5626 Y10.6102
G01 X7.5774 Y10.6102
G01 X7.6558 Y10.6140
G01 X7.6668 Y10.6150
G01 X7.7553 Y10.6283
G01 X7.8458 Y10.6509
G01 X7.9335 Y10.6823
G01 X8.0178 Y10.7222
G01 X8.0978 Y10.7701
G01 X8.1727 Y10.8256
G01 X8.2418 Y10.8882
G01 X8.3044 Y10.9573
G01 X8.3599 Y11.0322
G01 X8.4078 Y11.1122
G01 X8.4477 Y11.1965
G01 X8.4791 Y11.2842
G01 X8.5017 Y11.3747
G01 X8.5154 Y11.4669
G01 X8.5200 Y11.5600
G01 X8.5160 Y11.6458
G01 X8.5150 Y11.6568
G01 X8.5017 Y11.7453
G01 X8.4791 Y11.8358
G01 X8.4477 Y11.9235
G01 X8.4111 Y12.0013
G01 X8.4042 Y12.0142
G01 X8.3638 Y12.0816
G01 X8.3557 Y12.0938
G01 X8.3044 Y12.1627
G01 X8.2418 Y12.2318
G01 X8.1727 Y12.2944
G01 X8.1038 Y12.3457
G01 X8.0916 Y12.3538
G01 X8.0242 Y12.3942
G01 X8.0113 Y12.4011
G01 X7.9335 Y12.4377
G01 X7.8458 Y12.4691
G01 X7.7553 Y12.4917
G01 X7.6631 Y12.5054
G01 X7.5774 Y12.5098
G01 X7.5626 Y12.5098
G01 X7.4769 Y12.5054
G01 X7.3847 Y12.4917
G01 X7.3013 Y12.4711
G01 X7.2872 Y12.4668
G01 X7.2065 Y12.4377
G01 X7.1222 Y12.3978
G01 X7.0484 Y12.3538
G01 X7.0362 Y12.3457
G01 X6.9673 Y12.2944
G01 X6.8982 Y12.2318
G01 X6.8404 Y12.1682
G01 X6.8311 Y12.1569
G01 X6.7801 Y12.0878
G01 X6.7335 Y12.0102
G01 X4.6765 Y12.0101
G01 X3.6701 Y13.0165
G01 X3.6701 Y13.1000
G01 X4.0700 Y13.1000
G01 X4.0847 Y13.1007
G01 X4.0993 Y13.1029
G01 X4.1100 Y13.1054
G01 X4.1205 Y13.1088
G01 X4.1308 Y13.1129
G01 X4.1374 Y13.1160
G01 X4.1471 Y13.1213
G01 X4.1564 Y13.1274
G01 X4.1652 Y13.1340
G01 X4.1734 Y13.1414
G01 X4.1786 Y13.1466
G01 X4.1860 Y13.1548
G01 X4.1926 Y13.1636
G01 X4.1987 Y13.1729
G01 X4.2040 Y13.1826
G01 X4.2086 Y13.1926
G01 X4.2124 Y13.2029
G01 X4.2155 Y13.2136
G01 X4.2171 Y13.2207
G01 X4.2189 Y13.2316
G01 X4.2198 Y13.2426
G01 X4.2200 Y13.2500
G01 X4.2200 Y14.9537
G01 X4.2193 Y14.9647
G01 X4.2178 Y14.9756
G01 X4.2155 Y14.9864
G01 X4.2112 Y15.0005
G01 X4.2056 Y15.0141
G01 X4.2005 Y15.0239
G01 X4.1947 Y15.0333
G01 X4.1883 Y15.0423
G01 X4.1786 Y15.0534
G01 X4.1734 Y15.0586
G01 X4.1652 Y15.0660
G01 X4.1533 Y15.0747
G01 X4.1439 Y15.0805
G01 X4.1374 Y15.0840
G01 X4.1240 Y15.0899
G01 X4.1171 Y15.0924
G01 X4.1064 Y15.0955
G01 X4.0920 Y15.0984
G01 X4.0810 Y15.0996
G01 X4.0737 Y15.1000
G01 X2.3700 Y15.1000
G01 X2.3590 Y15.0996
G01 X2.3516 Y15.0989
G01 X2.3407 Y15.0971
G01 X2.3336 Y15.0955
G01 X2.3265 Y15.0935
G01 X2.3160 Y15.0899
G01 X2.3092 Y15.0871
G01 X2.2993 Y15.0823
G01 X2.2929 Y15.0787
G01 X2.2836 Y15.0726
G01 X2.2748 Y15.0660
G01 X2.2666 Y15.0586
G01 X2.2614 Y15.0534
G01 X2.2540 Y15.0452
G01 X2.2474 Y15.0364
G01 X2.2413 Y15.0271
G01 X2.2360 Y15.0174
G01 X2.2329 Y15.0108
G01 X2.2301 Y15.0040
G01 X2.2265 Y14.9935
G01 X2.2236 Y14.9829
G01 X2.2216 Y14.9720
G01 X2.2204 Y14.9610
G01 X2.2200 Y14.9537
G01 X2.2200 Y13.2500
G01 X2.2204 Y13.2390
G01 X2.2211 Y13.2316
G01 X2.2222 Y13.2244
G01 X2.2245 Y13.2136
G01 X2.2276 Y13.2029
G01 X2.2301 Y13.1960
G01 X2.2329 Y13.1892
G01 X2.2377 Y13.1793
G01 X2.2433 Y13.1698
G01 X2.2474 Y13.1636
G01 X2.2517 Y13.1577
G01 X2.2589 Y13.1493
G01 X2.2693 Y13.1389
G01 X2.2777 Y13.1317
G01 X2.2836 Y13.1274
G01 X2.2961 Y13.1195
G01 X2.3059 Y13.1144
G01 X2.3126 Y13.1114
G01 X2.3229 Y13.1076
G01 X2.3300 Y13.1054
G01 X2.3371 Y13.1036
G01 X2.3480 Y13.1016
G01 X2.3590 Y13.1004
G01 X2.3700 Y13.1000
G01 X2.7698 Y13.1000
G01 X2.7699 Y12.8263
G01 X2.7720 Y12.7859
G01 X2.7785 Y12.7422
G01 X2.7873 Y12.7064
G01 X2.7915 Y12.6923
G01 X2.8041 Y12.6577
G01 X2.8197 Y12.6244
G01 X2.8266 Y12.6114
G01 X2.8457 Y12.5799
G01 X2.8675 Y12.5502
G01 X2.8744 Y12.5416
G01 X2.9017 Y12.5117
G01 X4.1717 Y11.2417
G01 X4.1989 Y11.2168
G01 X4.2073 Y11.2097
G01 X4.2339 Y11.1900
G01 X4.2461 Y11.1818
G01 X4.2778 Y11.1630
G01 X4.3177 Y11.1441
G01 X4.3593 Y11.1292
G01 X4.3950 Y11.1201
G01 X4.4094 Y11.1172
G01 X4.4422 Y11.1124
G01 X4.4532 Y11.1115
G00 Z2.0000
G00 X4.0983 Y16.1622
G01 F60.00
G01 Z-0.0950
G01 F120.00
G01 X4.1036 Y16.1719
G01 X4.1122 Y16.1898
G01 X4.3035 Y16.1899
G01 X6.6579 Y13.8355
G01 X6.6609 Y13.8242
G01 X6.6632 Y13.8172
G01 X6.6923 Y13.7365
G01 X6.7322 Y13.6522
G01 X6.7801 Y13.5722
G01 X6.8356 Y13.4973
G01 X6.8982 Y13.4282
G01 X6.9673 Y13.3656
G01 X7.0422 Y13.3101
G01 X7.1158 Y13.2658
G01 X7.1287 Y13.2589
G01 X7.2065 Y13.2223
G01 X7.2942 Y13.1909
G01 X7.3847 Y13.1683
G01 X7.4769 Y13.1546
G01 X7.5700 Y13.1500
G01 X7.6631 Y13.1546
G01 X7.7553 Y13.1683
G01 X7.8458 Y13.1909
G01 X7.9335 Y13.2223
G01 X8.0178 Y13.2622
G01 X8.0978 Y13.3101
G01 X8.1727 Y13.3656
G01 X8.2418 Y13.4282
G01 X8.3044 Y13.4973
G01 X8.3599 Y13.5722
G01 X8.4042 Y13.6458
G01 X8.4111 Y13.6587
G01 X8.4477 Y13.7365
G01 X8.4768 Y13.8172
G01 X8.4811 Y13.8313
G01 X8.5001 Y13.9075
G01 X8.5030 Y13.9219
G01 X8.5154 Y14.0069
G01 X8.5200 Y14.1000
G01 X8.5154 Y14.1931
G01 X8.5030 Y14.2781
G01 X8.5001 Y14.2925
G01 X8.4811 Y14.3687
G01 X8.4768 Y14.3828
G01 X8.4477 Y14.4635
G01 X8.4078 Y14.5478
G01 X8.3599 Y14.6278
G01 X8.3089 Y14.6969
G01 X8.2996 Y14.7082
G01 X8.2468 Y14.7664
G01 X8.2364 Y14.7768
G01 X8.1727 Y14.8344
G01 X8.0978 Y14.8899
G01 X8.0178 Y14.9378
G01 X7.9335 Y14.9777
G01 X7.8458 Y15.0091
G01 X7.7553 Y15.0317
G01 X7.6631 Y15.0454
G01 X7.5737 Y15.0500
G01 X7.5626 Y15.0498
G01 X7.4769 Y15.0454
G01 X7.3847 Y15.0317
G01 X7.2942 Y15.0091
G01 X7.2133 Y14.9803
G01 X7.1997 Y14.9747
G01 X7.1222 Y14.9378
G01 X7.0484 Y14.8938
G01 X7.0362 Y14.8857
G01 X6.9702 Y14.8367
G01 X6.9645 Y14.8320
G01 X6.9488 Y14.8178
G01 X4.8083 Y16.9583
G01 X4.7811 Y16.9832
G01 X4.7698 Y16.9925
G01 X4.7401 Y17.0143
G01 X4.7054 Y17.0352
G01 X4.6956 Y17.0403
G01 X4.6623 Y17.0559
G01 X4.6207 Y17.0708
G01 X4.5778 Y17.0815
G01 X4.5341 Y17.0880
G01 X4.4900 Y17.0901
G01 X4.1122 Y17.0901
G01 X4.1036 Y17.1081
G01 X4.1001 Y17.1146
G01 X4.0515 Y17.1956
G01 X3.9975 Y17.2686
G01 X3.9882 Y17.2800
G01 X3.9271 Y17.3471
G01 X3.8600 Y17.4082
G01 X3.8486 Y17.4175
G01 X3.7816 Y17.4672
G01 X3.7725 Y17.4735
G01 X3.6914 Y17.5219
G01 X3.6094 Y17.5609
G01 X3.5958 Y17.5665
G01 X3.5103 Y17.5969
G01 X3.4223 Y17.6192
G01 X3.4078 Y17.6220
G01 X3.3180 Y17.6352
G01 X3.2237 Y17.6400
G01 X3.2126 Y17.6398
G01 X3.1293 Y17.6357
G01 X3.1147 Y17.6343
G01 X3.0249 Y17.6208
G01 X2.9368 Y17.5989
G01 X2.9227 Y17.5946
G01 X2.8373 Y17.5639
G01 X2.7552 Y17.5252
G01 X2.7422 Y17.5183
G01 X2.6644 Y17.4715
G01 X2.5914 Y17.4175
G01 X2.5800 Y17.4082
G01 X2.5129 Y17.3471
G01 X2.4518 Y17.2800
G01 X2.4425 Y17.2686
G01 X2.3885 Y17.1956
G01 X2.3381 Y17.1114
G01 X2.2961 Y17.0227
G01 X2.2631 Y16.9303
G01 X2.2392 Y16.8351
G01 X2.2248 Y16.7380
G01 X2.2200 Y16.6400
G01 X2.2248 Y16.5420
G01 X2.2392 Y16.4449
G01 X2.2631 Y16.3497
G01 X2.2961 Y16.2573
G01 X2.3381 Y16.1686
G01 X2.3885 Y16.0844
G01 X2.4470 Y16.0056
G01 X2.5129 Y15.9329
G01 X2.5856 Y15.8670
G01 X2.6644 Y15.8085
G01 X2.7486 Y15.7581
G01 X2.8373 Y15.7161
G01 X2.9297 Y15.6831
G01 X3.0249 Y15.6592
G01 X3.1220 Y15.6448
G01 X3.2200 Y15.6400
G01 X3.3180 Y15.6448
G01 X3.4151 Y15.6592
G01 X3.5103 Y15.6831
G01 X3.6027 Y15.7161
G01 X3.6914 Y15.7581
G01 X3.7756 Y15.8085
G01 X3.8544 Y15.8670
G01 X3.9271 Y15.9329
G01 X3.9930 Y16.0056
G01 X4.0515 Y16.0844
G01 X4.0983 Y16.1622
G00 Z2.0000
G00 X4.0983 Y18.7022
G01 F60.00
G01 Z-0.0950
G01 F120.00
G01 X4.1036 Y18.7119
G01 X4.1122 Y18.7298
G01 X4.3035 Y18.7299
G01 X6.6579 Y16.3755
G01 X6.6609 Y16.3642
G01 X6.6632 Y16.3572
G01 X6.6923 Y16.2765
G01 X6.7322 Y16.1922
G01 X6.7801 Y16.1122
G01 X6.8356 Y16.0373
G01 X6.8982 Y15.9682
G01 X6.9673 Y15.9056
G01 X7.0422 Y15.8501
G01 X7.1158 Y15.8058
G01 X7.1287 Y15.7989
G01 X7.2065 Y15.7623
G01 X7.2942 Y15.7309
G01 X7.3847 Y15.7083
G01 X7.4769 Y15.6946
G01 X7.5700 Y15.6900
G01 X7.6631 Y15.6946
G01 X7.7553 Y15.7083
G01 X7.8458 Y15.7309
G01 X7.9335 Y15.7623
G01 X8.0178 Y15.8022
G01 X8.0978 Y15.8501
G01 X8.1727 Y15.9056
G01 X8.2418 Y15.9682
G01 X8.3044 Y16.0373
G01 X8.3599 Y16.1122
G01 X8.4042 Y16.1858
G01 X8.4111 Y16.1987
G01 X8.4477 Y16.2765
G01 X8.4768 Y16.3572
G01 X8.4811 Y16.3713
G01 X8.5001 Y16.4475
G01 X8.5030 Y16.4619
G01 X8.5154 Y16.5469
G01 X8.5200 Y16.6400
G01 X8.5154 Y16.7331
G01 X8.5030 Y16.8181
G01 X8.5001 Y16.8325
G01 X8.4811 Y16.9087
G01 X8.4768 Y16.9228
G01 X8.4477 Y17.0035
G01 X8.4078 Y17.0878
G01 X8.3599 Y17.1678
G01 X8.3089 Y17.2369
G01 X8.2996 Y17.2482
G01 X8.2468 Y17.3064
G01 X8.2364 Y17.3168
G01 X8.1727 Y17.3744
G01 X8.0978 Y17.4299
G01 X8.0178 Y17.4778
G01 X7.9335 Y17.5177
G01 X7.8458 Y17.5491
G01 X7.7553 Y17.5717
G01 X7.6631 Y17.5854
G01 X7.5737 Y17.5900
G01 X7.5626 Y17.5898
G01 X7.4769 Y17.5854
G01 X7.3847 Y17.5717
G01 X7.2942 Y17.5491
G01 X7.2133 Y17.5203
G01 X7.1997 Y17.5147
G01 X7.1222 Y17.4778
G01 X7.0484 Y17.4338
G01 X7.0362 Y17.4257
G01 X6.9702 Y17.3767
G01 X6.9645 Y17.3720
G01 X6.9488 Y17.3578
G01 X4.8083 Y19.4983
G01 X4.7811 Y19.5232
G01 X4.7698 Y19.5325
G01 X4.7401 Y19.5543
G01 X4.7054 Y19.5752
G01 X4.6956 Y19.5803
G01 X4.6623 Y19.5959
G01 X4.6207 Y19.6108
G01 X4.5778 Y19.6215
G01 X4.5341 Y19.6280
G01 X4.4900 Y19.6301
G01 X4.1122 Y19.6301
G01 X4.1036 Y19.6481
G01 X4.1001 Y19.6546
G01 X4.0515 Y19.7356
G01 X3.9975 Y19.8086
G01 X3.9882 Y19.8200
G01 X3.9271 Y19.8871
G01 X3.8600 Y19.9482
G01 X3.8486 Y19.9575
G01 X3.7816 Y20.0072
G01 X3.7725 Y20.0135
G01 X3.6914 Y20.0619
G01 X3.6094 Y20.1009
G01 X3.5958 Y20.1065
G01 X3.5103 Y20.1369
G01 X3.4223 Y20.1592
G01 X3.4078 Y20.1620
G01 X3.3180 Y20.1752
G01 X3.2237 Y20.1800
G01 X3.2126 Y20.1798
G01 X3.1293 Y20.1757
G01 X3.1147 Y20.1743
G01 X3.0249 Y20.1608
G01 X2.9368 Y20.1389
G01 X2.9227 Y20.1346
G01 X2.8373 Y20.1039
G01 X2.7552 Y20.0652
G01 X2.7422 Y20.0583
G01 X2.6644 Y20.0115
G01 X2.5914 Y19.9575
G01 X2.5800 Y19.9482
G01 X2.5129 Y19.8871
G01 X2.4518 Y19.8200
G01 X2.4425 Y19.8086
G01 X2.3885 Y19.7356
G01 X2.3381 Y19.6514
G01 X2.2961 Y19.5627
G01 X2.2631 Y19.4703
G01 X2.2392 Y19.3751
G01 X2.2248 Y19.2780
G01 X2.2200 Y19.1800
G01 X2.2248 Y19.0820
G01 X2.2392 Y18.9849
G01 X2.2631 Y18.8897
G01 X2.2961 Y18.7973
G01 X2.3381 Y18.7086
G01 X2.3885 Y18.6244
G01 X2.4470 Y18.5456
G01 X2.5129 Y18.4729
G01 X2.5856 Y18.4070
G01 X2.6644 Y18.3485
G01 X2.7486 Y18.2981
G01 X2.8373 Y18.2561
G01 X2.9297 Y18.2231
G01 X3.0249 Y18.1992
G01 X3.1220 Y18.1848
G01 X3.2200 Y18.1800
G01 X3.3180 Y18.1848
G01 X3.4151 Y18.1992
G01 X3.5103 Y18.2231
G01 X3.6027 Y18.2561
G01 X3.6914 Y18.2981
G01 X3.7756 Y18.3485
G01 X3.8544 Y18.4070
G01 X3.9271 Y18.4729
G01 X3.9930 Y18.5456
G01 X4.0515 Y18.6244
G01 X4.0983 Y18.7022
G00 Z2.0000
G00 X2.0876 Y18.7678
G01 F60.00
G01 Z-0.0950
G01 F120.00
G01 X2.1764 Y18.5775
G01 X2.2969 Y18.4054
G01 X2.4454 Y18.2569
G01 X2.6233 Y18.1322
G01 X2.6324 Y18.1249
G01 X2.6517 Y18.1082
G01 X2.6597 Y18.1008
G01 X2.6647 Y18.0955
G01 X2.6695 Y18.0900
G01 X2.6761 Y18.0813
G01 X2.6839 Y18.0690
G01 X2.7188 Y18.0002
G01 X2.7235 Y17.9900
G01 X2.7285 Y17.9760
G01 X2.7321 Y17.9615
G01 X2.7343 Y17.9468
G01 X2.7350 Y17.9319
G01 X2.7342 Y17.9171
G01 X2.7260 Y17.8402
G01 X2.7239 Y17.8292
G01 X2.7221 Y17.8220
G01 X2.7173 Y17.8079
G01 X2.7128 Y17.7976
G01 X2.7094 Y17.7910
G01 X2.7056 Y17.7846
G01 X2.6995 Y17.7753
G01 X2.6513 Y17.7148
G01 X2.6443 Y17.7066
G01 X2.6368 Y17.6990
G01 X2.6287 Y17.6920
G01 X2.6231 Y17.6876
G01 X2.4454 Y17.5631
G01 X2.2969 Y17.4146
G01 X2.1764 Y17.2425
G01 X2.0876 Y17.0522
G01 X2.0332 Y16.8493
G01 X2.0149 Y16.6400
G01 X2.0332 Y16.4307
G01 X2.0876 Y16.2278
G01 X2.1764 Y16.0375
G01 X2.2969 Y15.8654
G01 X2.4144 Y15.7476
G01 X2.4213 Y15.7394
G01 X2.4447 Y15.7083
G01 X2.4531 Y15.6958
G01 X2.4586 Y15.6858
G01 X2.4633 Y15.6755
G01 X2.4672 Y15.6649
G01 X2.4703 Y15.6540
G01 X2.4868 Y15.5784
G01 X2.4884 Y15.5673
G01 X2.4894 Y15.5525
G01 X2.4892 Y15.5413
G01 X2.4881 Y15.5302
G01 X2.4862 Y15.5192
G01 X2.4835 Y15.5083
G01 X2.4800 Y15.4977
G01 X2.4556 Y15.4323
G01 X2.4497 Y15.4186
G01 X2.4444 Y15.4087
G01 X2.4362 Y15.3963
G01 X2.4268 Y15.3847
G01 X2.4191 Y15.3767
G01 X2.4079 Y15.3669
G01 X2.3490 Y15.3227
G01 X2.3372 Y15.3147
G01 X2.3246 Y15.3079
G01 X2.3148 Y15.3036
G01 X2.2003 Y15.2608
G01 X2.1196 Y15.2004
G01 X2.0592 Y15.1197
G01 X2.0230 Y15.0227
G01 X2.0195 Y14.9898
G01 X2.0195 Y13.2102
G01 X2.0230 Y13.1773
G01 X2.0592 Y13.0803
G01 X2.1196 Y12.9996
G01 X2.2003 Y12.9392
G01 X2.2973 Y12.9030
G01 X2.3451 Y12.8978
G01 X2.3646 Y12.8949
G01 X2.3787 Y12.8917
G01 X2.3924 Y12.8871
G01 X2.3991 Y12.8844
G01 X2.4088 Y12.8796
G01 X2.4769 Y12.8431
G01 X2.4831 Y12.8392
G01 X2.4921 Y12.8327
G01 X2.4978 Y12.8281
G01 X2.5059 Y12.8206
G01 X2.5158 Y12.8097
G01 X2.5203 Y12.8039
G01 X2.5265 Y12.7948
G01 X2.5628 Y12.7314
G01 X2.5697 Y12.7176
G01 X2.5753 Y12.7039
G01 X2.5913 Y12.6569
G01 X2.5956 Y12.6421
G01 X2.6021 Y12.6138
G01 X2.6147 Y12.5876
G01 X2.6190 Y12.5773
G01 X2.6302 Y12.5460
G01 X2.6456 Y12.5213
G01 X2.6511 Y12.5116
G01 X2.6657 Y12.4817
G01 X2.6863 Y12.4556
G01 X2.6927 Y12.4464
G01 X2.7082 Y12.4219
G01 X4.0819 Y11.0482
G01 X4.1064 Y11.0327
G01 X4.1156 Y11.0263
G01 X4.1417 Y11.0057
G01 X4.1716 Y10.9911
G01 X4.1813 Y10.9856
G01 X4.2060 Y10.9702
G01 X4.2373 Y10.9590
G01 X4.2476 Y10.9547
G01 X4.2738 Y10.9421
G01 X4.3021 Y10.9356
G01 X4.3128 Y10.9326
G01 X4.3443 Y10.9218
G01 X4.3732 Y10.9185
G01 X4.3842 Y10.9167
G01 X4.4167 Y10.9095
G01 X6.4800 Y10.9095
G01 X6.4960 Y10.9086
G01 X6.5223 Y10.9058
G01 X6.5333 Y10.9042
G01 X6.5441 Y10.9018
G01 X6.5546 Y10.8987
G01 X6.5615 Y10.8961
G01 X6.5717 Y10.8917
G01 X6.6426 Y10.8531
G01 X6.6487 Y10.8494
G01 X6.6575 Y10.8433
G01 X6.6659 Y10.8365
G01 X6.6737 Y10.8292
G01 X6.8277 Y10.6753
G01 X6.9926 Y10.5598
G01 X7.0421 Y10.5367
G01 X7.0553 Y10.5293
G01 X7.0646 Y10.5229
G01 X7.0735 Y10.5157
G01 X7.1303 Y10.4663
G01 X7.1404 Y10.4556
G01 X7.1451 Y10.4499
G01 X7.1515 Y10.4410
G01 X7.1573 Y10.4316
G01 X7.1623 Y10.4218
G01 X7.1667 Y10.4117
G01 X7.1702 Y10.4013
G01 X7.1924 Y10.3272
G01 X7.1953 Y10.3126
G01 X7.1967 Y10.2978
G01 X7.1968 Y10.2866
G01 X7.1961 Y10.2754
G01 X7.1945 Y10.2644
G01 X7.1921 Y10.2535
G01 X7.1709 Y10.1791
G01 X7.1658 Y10.1651
G01 X7.1610 Y10.1550
G01 X7.1555 Y10.1453
G01 X7.1493 Y10.1360
G01 X7.1425 Y10.1272
G01 X7.1349 Y10.1189
G01 X7.1268 Y10.1112
G01 X7.0744 Y10.0650
G01 X7.0661 Y10.0583
G01 X7.0574 Y10.0521
G01 X7.0451 Y10.0448
G01 X6.9926 Y10.0202
G01 X6.8276 Y9.9047
G01 X6.6853 Y9.7624
G01 X6.5698 Y9.5974
G01 X6.4848 Y9.4150
G01 X6.4327 Y9.2205
G01 X6.4151 Y9.0200
G01 X6.4327 Y8.8195
G01 X6.4848 Y8.6250
G01 X6.5698 Y8.4426
G01 X6.6853 Y8.2776
G01 X6.8420 Y8.1208
G01 X6.8500 Y8.1118
G01 X6.8666 Y8.0911
G01 X6.8732 Y8.0823
G01 X6.8792 Y8.0730
G01 X6.8844 Y8.0632
G01 X6.8889 Y8.0532
G01 X6.8915 Y8.0463
G01 X6.9144 Y7.9688
G01 X6.9168 Y7.9583
G01 X6.9184 Y7.9478
G01 X6.9193 Y7.9371
G01 X6.9195 Y7.9300
G01 X6.9195 Y4.5967
G01 X6.9259 Y4.5684
G01 X6.9278 Y4.5574
G01 X6.9318 Y4.5243
G01 X6.9426 Y4.4928
G01 X6.9456 Y4.4821
G01 X6.9521 Y4.4538
G01 X6.9647 Y4.4276
G01 X6.9690 Y4.4173
G01 X6.9802 Y4.3860
G01 X6.9956 Y4.3613
G01 X7.0011 Y4.3516
G01 X7.0157 Y4.3217
G01 X7.0363 Y4.2956
G01 X7.0427 Y4.2864
G01 X7.0582 Y4.2619
G01 X9.1619 Y2.1582
G01 X9.1864 Y2.1427
G01 X9.1956 Y2.1363
G01 X9.2217 Y2.1157
G01 X9.2516 Y2.1011
G01 X9.2613 Y2.0956
G01 X9.2860 Y2.0802
G01 X9.3173 Y2.0690
G01 X9.3276 Y2.0647
G01 X9.3538 Y2.0521
G01 X9.3821 Y2.0456
G01 X9.3928 Y2.0426
G01 X9.4243 Y2.0318
G01 X9.4532 Y2.0285
G01 X9.4642 Y2.0267
G01 X9.4967 Y2.0195
G01 X18.5333 Y2.0195
G01 X18.5658 Y2.0267
G01 X18.5768 Y2.0285
G01 X18.6057 Y2.0318
G01 X18.6372 Y2.0426
G01 X18.6479 Y2.0456
G01 X18.6762 Y2.0521
G01 X18.7024 Y2.0647
G01 X18.7127 Y2.0690
G01 X18.7440 Y2.0802
G01 X18.7687 Y2.0956
G01 X18.7784 Y2.1011
G01 X18.8083 Y2.1157
G01 X18.8344 Y2.1363
G01 X18.8436 Y2.1427
G01 X18.8681 Y2.1582
G01 X19.9221 Y3.2120
G01 X19.9311 Y3.2200
G01 X19.9576 Y3.2411
G01 X19.9699 Y3.2492
G01 X19.9830 Y3.2560
G01 X19.9897 Y3.2589
G01 X20.0001 Y3.2627
G01 X20.0776 Y3.2853
G01 X20.0881 Y3.2874
G01 X20.0951 Y3.2884
G01 X20.1022 Y3.2891
G01 X20.1129 Y3.2895
G01 X23.6133 Y3.2895
G01 X23.6458 Y3.2967
G01 X23.6568 Y3.2985
G01 X23.6857 Y3.3018
G01 X23.7131 Y3.3113
G01 X23.7238 Y3.3145
G01 X23.7562 Y3.3221
G01 X23.7863 Y3.3363
G01 X23.7966 Y3.3406
G01 X23.8240 Y3.3502
G01 X23.8523 Y3.3677
G01 X23.8621 Y3.3731
G01 X23.8883 Y3.3857
G01 X23.9144 Y3.4063
G01 X23.9236 Y3.4127
G01 X23.9481 Y3.4282
G01 X26.5918 Y6.0719
G01 X26.6073 Y6.0964
G01 X26.6137 Y6.1056
G01 X26.6343 Y6.1317
G01 X26.6489 Y6.1616
G01 X26.6544 Y6.1713
G01 X26.6698 Y6.1960
G01 X26.6810 Y6.2273
G01 X26.6853 Y6.2376
G01 X26.6979 Y6.2638
G01 X26.7044 Y6.2921
G01 X26.7074 Y6.3029
G01 X26.7182 Y6.3343
G01 X26.7215 Y6.3632
G01 X26.7233 Y6.3742
G01 X26.7305 Y6.4067
G01 X26.7305 Y7.8233
G01 X26.7233 Y7.8558
G01 X26.7215 Y7.8668
G01 X26.7182 Y7.8957
G01 X26.7087 Y7.9231
G01 X26.7055 Y7.9338
G01 X26.6979 Y7.9662
G01 X26.6837 Y7.9963
G01 X26.6794 Y8.0066
G01 X26.6698 Y8.0340
G01 X26.6523 Y8.0623
G01 X26.6469 Y8.0721
G01 X26.6343 Y8.0983
G01 X26.6137 Y8.1244
G01 X26.6073 Y8.1336
G01 X26.5918 Y8.1581
G01 X25.2181 Y9.5318
G01 X25.1936 Y9.5473
G01 X25.1844 Y9.5537
G01 X25.1583 Y9.5743
G01 X25.1321 Y9.5869
G01 X25.1223 Y9.5923
G01 X25.0940 Y9.6098
G01 X25.0666 Y9.6194
G01 X25.0563 Y9.6237
G01 X25.0262 Y9.6379
G01 X24.9938 Y9.6455
G01 X24.9831 Y9.6487
G01 X24.9557 Y9.6582
G01 X24.9268 Y9.6615
G01 X24.9158 Y9.6633
G01 X24.8833 Y9.6705
G01 X23.4227 Y9.6705
G01 X23.4081 Y9.6712
G01 X23.3973 Y9.6727
G01 X23.3467 Y9.6826
G01 X23.3327 Y9.6860
G01 X23.3192 Y9.6908
G01 X23.3093 Y9.6952
G01 X23.2998 Y9.7004
G01 X23.2907 Y9.7061
G01 X23.2820 Y9.7126
G01 X23.2220 Y9.7608
G01 X23.2142 Y9.7682
G01 X23.2070 Y9.7761
G01 X23.2003 Y9.7844
G01 X23.1931 Y9.7946
G01 X23.0446 Y9.9431
G01 X22.8667 Y10.0678
G01 X22.8576 Y10.0751
G01 X22.8383 Y10.0918
G01 X22.8303 Y10.0992
G01 X22.8253 Y10.1045
G01 X22.8183 Y10.1129
G01 X22.8119 Y10.1217
G01 X22.8061 Y10.1310
G01 X22.7680 Y10.2066
G01 X22.7626 Y10.2204
G01 X22.7604 Y10.2276
G01 X22.7579 Y10.2385
G01 X22.7557 Y10.2532
G01 X22.7550 Y10.2681
G01 X22.7558 Y10.2829
G01 X22.7640 Y10.3598
G01 X22.7661 Y10.3708
G01 X22.7679 Y10.3780
G01 X22.7727 Y10.3921
G01 X22.7772 Y10.4024
G01 X22.7806 Y10.4090
G01 X22.7863 Y10.4186
G01 X22.7905 Y10.4247
G01 X22.8433 Y10.4907
G01 X22.8481 Y10.4959
G01 X22.8558 Y10.5034
G01 X22.8669 Y10.5124
G01 X23.0446 Y10.6369
G01 X23.1931 Y10.7854
G01 X23.2048 Y10.8014
G01 X23.2146 Y10.8122
G01 X23.2543 Y10.8504
G01 X23.2626 Y10.8574
G01 X23.2743 Y10.8658
G01 X23.2835 Y10.8713
G01 X23.2932 Y10.8762
G01 X23.2998 Y10.8790
G01 X23.3099 Y10.8827
G01 X23.3839 Y10.9044
G01 X23.3908 Y10.9061
G01 X23.4013 Y10.9080
G01 X23.4120 Y10.9091
G01 X23.4227 Y10.9095
G01 X23.6133 Y10.9095
G01 X23.6458 Y10.9167
G01 X23.6568 Y10.9185
G01 X23.6857 Y10.9218
G01 X23.7131 Y10.9313
G01 X23.7238 Y10.9345
G01 X23.7562 Y10.9421
G01 X23.7863 Y10.9563
G01 X23.7966 Y10.9606
G01 X23.8240 Y10.9702
G01 X23.8523 Y10.9877
G01 X23.8621 Y10.9931
G01 X23.8883 Y11.0057
G01 X23.9144 Y11.0263
G01 X23.9236 Y11.0327
G01 X23.9481 Y11.0482
G01 X26.5918 Y13.6919
G01 X26.6073 Y13.7164
G01 X26.6137 Y13.7256
G01 X26.6343 Y13.7517
G01 X26.6489 Y13.7816
G01 X26.6544 Y13.7913
G01 X26.6698 Y13.8160
G01 X26.6810 Y13.8473
G01 X26.6853 Y13.8576
G01 X26.6979 Y13.8838
G01 X26.7044 Y13.9121
G01 X26.7074 Y13.9229
G01 X26.7182 Y13.9543
G01 X26.7215 Y13.9832
G01 X26.7233 Y13.9942
G01 X26.7305 Y14.0267
G01 X26.7305 Y34.4933
G01 X26.7233 Y34.5258
G01 X26.7215 Y34.5368
G01 X26.7182 Y34.5657
G01 X26.7087 Y34.5931
G01 X26.7055 Y34.6038
G01 X26.6979 Y34.6362
G01 X26.6837 Y34.6663
G01 X26.6794 Y34.6766
G01 X26.6698 Y34.7040
G01 X26.6523 Y34.7323
G01 X26.6469 Y34.7421
G01 X26.6343 Y34.7683
G01 X26.6137 Y34.7944
G01 X26.6073 Y34.8036
G01 X26.5918 Y34.8281
G01 X23.9481 Y37.4718
G01 X23.9236 Y37.4873
G01 X23.9144 Y37.4937
G01 X23.8883 Y37.5143
G01 X23.8621 Y37.5269
G01 X23.8523 Y37.5323
G01 X23.8240 Y37.5498
G01 X23.7966 Y37.5594
G01 X23.7863 Y37.5637
G01 X23.7562 Y37.5779
G01 X23.7279 Y37.5844
G01 X23.7171 Y37.5874
G01 X23.6857 Y37.5982
G01 X23.6526 Y37.6022
G01 X23.6416 Y37.6041
G01 X23.6133 Y37.6105
G01 X19.1470 Y37.6105
G01 X19.1332 Y37.6111
G01 X19.1230 Y37.6124
G01 X19.0838 Y37.6188
G01 X19.0729 Y37.6210
G01 X19.0586 Y37.6251
G01 X19.0482 Y37.6292
G01 X19.0415 Y37.6323
G01 X19.0317 Y37.6376
G01 X19.0254 Y37.6415
G01 X18.9619 Y37.6856
G01 X18.9531 Y37.6926
G01 X18.9475 Y37.6975
G01 X18.9372 Y37.7083
G01 X18.9280 Y37.7200
G01 X18.9239 Y37.7262
G01 X18.9182 Y37.7358
G01 X18.9133 Y37.7459
G01 X18.8994 Y37.7793
G01 X18.8926 Y37.7910
G01 X18.8879 Y37.8010
G01 X18.8840 Y37.8113
G01 X18.8803 Y37.8237
G01 X18.8408 Y37.9297
G01 X18.7804 Y38.0104
G01 X18.6997 Y38.0708
G01 X18.6027 Y38.1070
G01 X18.5698 Y38.1105
G01 X16.8902 Y38.1105
G01 X16.8573 Y38.1070
G01 X16.7603 Y38.0708
G01 X16.6796 Y38.0104
G01 X16.6192 Y37.9297
G01 X16.5830 Y37.8327
G01 X16.5795 Y37.7998
G01 X16.5795 Y36.1202
G01 X16.5830 Y36.0873
G01 X16.6192 Y35.9903
G01 X16.6796 Y35.9096
G01 X16.7603 Y35.8492
G01 X16.8573 Y35.8130
G01 X16.8805 Y35.8104
G01 X16.9046 Y35.8061
G01 X16.9193 Y35.8023
G01 X16.9336 Y35.7970
G01 X16.9405 Y35.7938
G01 X16.9506 Y35.7884
G01 X17.0140 Y35.7511
G01 X17.0262 Y35.7426
G01 X17.0320 Y35.7379
G01 X17.0402 Y35.7304
G01 X17.0479 Y35.7222
G01 X17.0526 Y35.7165
G01 X17.0592 Y35.7074
G01 X17.0651 Y35.6979
G01 X17.1033 Y35.6223
G01 X17.1087 Y35.6084
G01 X17.1109 Y35.6013
G01 X17.1134 Y35.5904
G01 X17.1156 Y35.5757
G01 X17.1163 Y35.5608
G01 X17.1155 Y35.5459
G01 X17.1083 Y35.4764
G01 X17.1060 Y35.4617
G01 X17.1023 Y35.4473
G01 X17.0986 Y35.4367
G01 X17.0924 Y35.4232
G01 X17.0850 Y35.4103
G01 X17.0763 Y35.3982
G01 X17.0326 Y35.3436
G01 X17.0232 Y35.3329
G01 X17.0181 Y35.3279
G01 X17.0100 Y35.3209
G01 X16.9876 Y35.3047
G01 X16.8453 Y35.1624
G01 X16.7298 Y34.9974
G01 X16.6448 Y34.8150
G01 X16.5927 Y34.6205
G01 X16.5751 Y34.4200
G01 X16.5927 Y34.2195
G01 X16.6448 Y34.0250
G01 X16.7298 Y33.8426
G01 X16.8453 Y33.6776
G01 X16.9876 Y33.5353
G01 X17.1526 Y33.4198
G01 X17.2021 Y33.3967
G01 X17.2120 Y33.3912
G01 X17.2216 Y33.3851
G01 X17.2335 Y33.3757
G01 X17.2849 Y33.3312
G01 X17.2929 Y33.3237
G01 X17.3028 Y33.3128
G01 X17.3094 Y33.3040
G01 X17.3135 Y33.2979
G01 X17.3207 Y33.2851
G01 X17.3267 Y33.2717
G01 X17.3302 Y33.2613
G01 X17.3524 Y33.1872
G01 X17.3540 Y33.1799
G01 X17.3558 Y33.1689
G01 X17.3568 Y33.1540
G01 X17.3568 Y33.1466
G01 X17.3561 Y33.1354
G01 X17.3551 Y33.1280
G01 X17.3530 Y33.1171
G01 X17.3298 Y33.0356
G01 X17.3243 Y33.0217
G01 X17.3193 Y33.0117
G01 X17.3155 Y33.0053
G01 X17.3115 Y32.9990
G01 X17.3048 Y32.9901
G01 X17.2949 Y32.9789
G01 X17.2868 Y32.9712
G01 X17.2344 Y32.9250
G01 X17.2289 Y32.9204
G01 X17.2203 Y32.9141
G01 X17.2113 Y32.9083
G01 X17.2019 Y32.9032
G01 X17.1526 Y32.8802
G01 X16.9876 Y32.7647
G01 X16.8453 Y32.6224
G01 X16.7298 Y32.4574
G01 X16.6448 Y32.2750
G01 X16.5927 Y32.0805
G01 X16.5751 Y31.8800
G01 X16.5927 Y31.6795
G01 X16.6448 Y31.4850
G01 X16.7298 Y31.3026
G01 X16.8453 Y31.1376
G01 X16.9876 Y30.9953
G01 X17.1526 Y30.8798
G01 X17.2027 Y30.8564
G01 X17.2126 Y30.8510
G01 X17.2222 Y30.8448
G01 X17.2341 Y30.8355
G01 X17.2855 Y30.7910
G01 X17.2909 Y30.7860
G01 X17.2986 Y30.7781
G01 X17.3079 Y30.7667
G01 X17.3160 Y30.7545
G01 X17.3229 Y30.7415
G01 X17.3285 Y30.7280
G01 X17.3530 Y30.6469
G01 X17.3559 Y30.6323
G01 X17.3571 Y30.6212
G01 X17.3574 Y30.6138
G01 X17.3572 Y30.6026
G01 X17.3567 Y30.5952
G01 X17.3551 Y30.5841
G01 X17.3536 Y30.5768
G01 X17.3315 Y30.4988
G01 X17.3264 Y30.4848
G01 X17.3199 Y30.4714
G01 X17.3121 Y30.4588
G01 X17.3054 Y30.4498
G01 X17.2981 Y30.4413
G01 X17.2902 Y30.4334
G01 X17.2350 Y30.3848
G01 X17.2238 Y30.3759
G01 X17.2119 Y30.3680
G01 X17.2025 Y30.3629
G01 X17.1528 Y30.3397
G01 X16.9880 Y30.2243
G01 X16.8457 Y30.0820
G01 X16.7303 Y29.9172
G01 X16.6476 Y29.7400
G01 X16.8694 Y29.7400
G01 X16.8889 Y29.7813
G01 X16.8940 Y29.7911
G01 X16.9362 Y29.8616
G01 X16.9422 Y29.8708
G01 X16.9956 Y29.9427
G01 X17.0557 Y30.0091
G01 X17.0636 Y30.0168
G01 X17.1273 Y30.0744
G01 X17.1962 Y30.1257
G01 X17.2084 Y30.1338
G01 X17.2758 Y30.1742
G01 X17.2854 Y30.1795
G01 X17.3597 Y30.2147
G01 X17.3733 Y30.2203
G01 X17.4542 Y30.2491
G01 X17.5375 Y30.2701
G01 X17.5519 Y30.2730
G01 X17.6369 Y30.2854
G01 X17.7300 Y30.2900
G01 X17.8231 Y30.2854
G01 X17.9081 Y30.2730
G01 X17.9225 Y30.2701
G01 X18.0058 Y30.2491
G01 X18.0867 Y30.2203
G01 X18.1003 Y30.2147
G01 X18.1746 Y30.1795
G01 X18.1842 Y30.1742
G01 X18.2578 Y30.1299
G01 X18.3269 Y30.0789
G01 X18.3382 Y30.0696
G01 X18.3964 Y30.0168
G01 X18.4043 Y30.0091
G01 X18.4644 Y29.9427
G01 X18.5178 Y29.8708
G01 X18.5238 Y29.8616
G01 X18.5660 Y29.7911
G01 X18.5711 Y29.7813
G01 X18.5906 Y29.7400
G01 X18.8124 Y29.7400
G01 X18.7297 Y29.9172
G01 X18.6143 Y30.0820
G01 X18.4720 Y30.2243
G01 X18.3072 Y30.3397
G01 X18.2573 Y30.3630
G01 X18.2474 Y30.3685
G01 X18.2378 Y30.3747
G01 X18.2259 Y30.3840
G01 X18.1718 Y30.4309
G01 X18.1614 Y30.4413
G01 X18.1566 Y30.4469
G01 X18.1500 Y30.4557
G01 X18.1440 Y30.4649
G01 X18.1387 Y30.4746
G01 X18.1341 Y30.4846
G01 X18.1303 Y30.4950
G01 X18.1079 Y30.5689
G01 X18.1047 Y30.5835
G01 X18.1029 Y30.5982
G01 X18.1025 Y30.6094
G01 X18.1030 Y30.6206
G01 X18.1043 Y30.6317
G01 X18.1056 Y30.6390
G01 X18.1083 Y30.6499
G01 X18.1274 Y30.7171
G01 X18.1309 Y30.7277
G01 X18.1351 Y30.7380
G01 X18.1420 Y30.7512
G01 X18.1501 Y30.7637
G01 X18.1594 Y30.7754
G01 X18.1671 Y30.7835
G01 X18.1726 Y30.7885
G01 X18.2277 Y30.8370
G01 X18.2391 Y30.8457
G01 X18.2481 Y30.8514
G01 X18.2543 Y30.8549
G01 X18.3074 Y30.8798
G01 X18.4724 Y30.9953
G01 X18.6321 Y31.1548
G01 X18.6589 Y31.1766
G01 X18.6677 Y31.1832
G01 X18.6770 Y31.1892
G01 X18.6835 Y31.1927
G01 X18.6968 Y31.1989
G01 X18.7107 Y31.2037
G01 X18.7812 Y31.2244
G01 X18.7952 Y31.2274
G01 X18.8022 Y31.2284
G01 X18.8129 Y31.2293
G01 X19.3471 Y31.2295
G01 X19.3591 Y31.2290
G01 X19.3931 Y31.2254
G01 X19.4040 Y31.2235
G01 X19.4182 Y31.2198
G01 X19.4321 Y31.2147
G01 X19.4453 Y31.2083
G01 X19.5097 Y31.1731
G01 X19.5158 Y31.1694
G01 X19.5246 Y31.1633
G01 X19.5356 Y31.1542
G01 X20.5919 Y30.0982
G01 X20.6164 Y30.0827
G01 X20.6256 Y30.0763
G01 X20.6517 Y30.0557
G01 X20.6816 Y30.0411
G01 X20.6913 Y30.0356
G01 X20.7160 Y30.0202
G01 X20.7473 Y30.0090
G01 X20.7576 Y30.0047
G01 X20.7838 Y29.9921
G01 X20.8121 Y29.9856
G01 X20.8228 Y29.9826
G01 X20.8543 Y29.9718
G01 X20.8832 Y29.9685
G01 X20.8942 Y29.9667
G01 X20.9267 Y29.9595
G01 X21.1173 Y29.9595
G01 X21.1246 Y29.9593
G01 X21.1355 Y29.9584
G01 X21.1463 Y29.9567
G01 X21.1933 Y29.9474
G01 X21.2038 Y29.9450
G01 X21.2141 Y29.9417
G01 X21.2241 Y29.9378
G01 X21.2339 Y29.9331
G01 X21.2433 Y29.9278
G01 X21.2522 Y29.9218
G01 X21.2580 Y29.9174
G01 X21.3125 Y29.8738
G01 X21.3233 Y29.8644
G01 X21.3307 Y29.8566
G01 X21.3353 Y29.8512
G01 X21.3469 Y29.8354
G01 X21.4954 Y29.6869
G01 X21.6733 Y29.5622
G01 X21.6824 Y29.5549
G01 X21.7017 Y29.5382
G01 X21.7122 Y29.5282
G01 X21.7171 Y29.5227
G01 X21.7239 Y29.5142
G01 X21.7301 Y29.5052
G01 X21.7339 Y29.4990
G01 X21.7720 Y29.4234
G01 X21.7774 Y29.4096
G01 X21.7814 Y29.3952
G01 X21.7839 Y29.3805
G01 X21.7848 Y29.3694
G01 X21.7850 Y29.3619
G01 X21.7842 Y29.3471
G01 X21.7760 Y29.2702
G01 X21.7739 Y29.2592
G01 X21.7721 Y29.2520
G01 X21.7673 Y29.2379
G01 X21.7628 Y29.2276
G01 X21.7594 Y29.2210
G01 X21.7537 Y29.2114
G01 X21.7495 Y29.2053
G01 X21.6967 Y29.1393
G01 X21.6919 Y29.1341
G01 X21.6842 Y29.1266
G01 X21.6731 Y29.1176
G01 X21.4954 Y28.9931
G01 X21.3469 Y28.8446
G01 X21.3352 Y28.8286
G01 X21.3254 Y28.8178
G01 X21.2883 Y28.7820
G01 X21.2774 Y28.7726
G01 X21.2657 Y28.7642
G01 X21.2565 Y28.7587
G01 X21.2468 Y28.7538
G01 X21.2369 Y28.7497
G01 X21.2266 Y28.7463
G01 X21.1596 Y28.7266
G01 X21.1492 Y28.7239
G01 X21.1387 Y28.7220
G01 X21.1280 Y28.7209
G01 X21.1173 Y28.7205
G01 X20.9267 Y28.7205
G01 X20.8942 Y28.7133
G01 X20.8832 Y28.7115
G01 X20.8543 Y28.7082
G01 X20.8229 Y28.6974
G01 X20.8121 Y28.6944
G01 X20.7838 Y28.6879
G01 X20.7576 Y28.6753
G01 X20.7473 Y28.6710
G01 X20.7160 Y28.6598
G01 X20.6913 Y28.6444
G01 X20.6816 Y28.6389
G01 X20.6517 Y28.6243
G01 X20.6256 Y28.6037
G01 X20.6164 Y28.5973
G01 X20.5919 Y28.5818
G01 X19.5350 Y27.5252
G01 X19.5082 Y27.5034
G01 X19.4994 Y27.4968
G01 X19.4869 Y27.4890
G01 X19.4737 Y27.4825
G01 X19.4668 Y27.4798
G01 X19.4564 Y27.4763
G01 X19.3859 Y27.4556
G01 X19.3719 Y27.4526
G01 X19.3578 Y27.4509
G01 X19.3471 Y27.4505
G01 X18.8160 Y27.4506
G01 X18.8040 Y27.4514
G01 X18.7777 Y27.4542
G01 X18.7667 Y27.4558
G01 X18.7524 Y27.4591
G01 X18.7385 Y27.4639
G01 X18.7283 Y27.4683
G01 X18.7218 Y27.4717
G01 X18.6574 Y27.5069
G01 X18.6454 Y27.5146
G01 X18.6369 Y27.5212
G01 X18.6263 Y27.5308
G01 X18.4724 Y27.6847
G01 X18.3074 Y27.8002
G01 X18.2540 Y27.8253
G01 X18.2410 Y27.8331
G01 X18.2288 Y27.8421
G01 X18.1745 Y27.8890
G01 X18.1691 Y27.8940
G01 X18.1614 Y27.9019
G01 X18.1521 Y27.9133
G01 X18.1440 Y27.9255
G01 X18.1371 Y27.9385
G01 X18.1315 Y27.9520
G01 X18.1090 Y28.0259
G01 X18.1061 Y28.0367
G01 X18.1041 Y28.0477
G01 X18.1029 Y28.0588
G01 X18.1025 Y28.0700
G01 X18.1028 Y28.0774
G01 X18.1043 Y28.0922
G01 X18.1073 Y28.1068
G01 X18.1285 Y28.1812
G01 X18.1322 Y28.1917
G01 X18.1367 Y28.2019
G01 X18.1420 Y28.2118
G01 X18.1479 Y28.2212
G01 X18.1546 Y28.2302
G01 X18.1594 Y28.2359
G01 X18.1698 Y28.2466
G01 X18.2250 Y28.2952
G01 X18.2362 Y28.3042
G01 X18.2451 Y28.3101
G01 X18.2575 Y28.3171
G01 X18.3072 Y28.3403
G01 X18.4720 Y28.4557
G01 X18.6143 Y28.5980
G01 X18.7297 Y28.7628
G01 X18.8124 Y28.9400
G01 X18.5906 Y28.9400
G01 X18.5711 Y28.8987
G01 X18.5660 Y28.8889
G01 X18.5238 Y28.8184
G01 X18.5178 Y28.8092
G01 X18.4644 Y28.7373
G01 X18.4043 Y28.6709
G01 X18.3964 Y28.6632
G01 X18.3327 Y28.6056
G01 X18.2638 Y28.5543
G01 X18.2516 Y28.5462
G01 X18.1842 Y28.5058
G01 X18.1746 Y28.5005
G01 X18.1003 Y28.4653
G01 X18.0867 Y28.4597
G01 X18.0058 Y28.4309
G01 X17.9225 Y28.4099
G01 X17.9081 Y28.4070
G01 X17.8231 Y28.3946
G01 X17.7300 Y28.3900
G01 X17.6369 Y28.3946
G01 X17.5519 Y28.4070
G01 X17.5375 Y28.4099
G01 X17.4542 Y28.4309
G01 X17.3733 Y28.4597
G01 X17.3597 Y28.4653
G01 X17.2854 Y28.5005
G01 X17.2758 Y28.5058
G01 X17.2022 Y28.5501
G01 X17.1331 Y28.6011
G01 X17.1218 Y28.6104
G01 X17.0636 Y28.6632
G01 X17.0557 Y28.6709
G01 X16.9956 Y28.7373
G01 X16.9422 Y28.8092
G01 X16.9362 Y28.8184
G01 X16.8940 Y28.8889
G01 X16.8889 Y28.8987
G01 X16.8694 Y28.9400
G01 X16.6476 Y28.9400
G01 X16.7303 Y28.7628
G01 X16.8457 Y28.5980
G01 X16.9880 Y28.4557
G01 X17.1528 Y28.3403
G01 X17.2027 Y28.3170
G01 X17.2126 Y28.3115
G01 X17.2222 Y28.3053
G01 X17.2341 Y28.2960
G01 X17.2882 Y28.2491
G01 X17.2961 Y28.2414
G01 X17.3034 Y28.2331
G01 X17.3121 Y28.2213
G01 X17.3196 Y28.2087
G01 X17.3244 Y28.1988
G01 X17.3297 Y28.1850
G01 X17.3510 Y28.1147
G01 X17.3539 Y28.1039
G01 X17.3559 Y28.0929
G01 X17.3568 Y28.0855
G01 X17.3573 Y28.0780
G01 X17.3574 Y28.0669
G01 X17.3570 Y28.0594
G01 X17.3557 Y28.0483
G01 X17.3527 Y28.0337
G01 X17.3326 Y27.9629
G01 X17.3291 Y27.9523
G01 X17.3233 Y27.9386
G01 X17.3161 Y27.9256
G01 X17.3077 Y27.9133
G01 X17.2981 Y27.9019
G01 X17.2874 Y27.8915
G01 X17.2350 Y27.8453
G01 X17.2267 Y27.8385
G01 X17.2210 Y27.8344
G01 X17.2120 Y27.8286
G01 X17.2026 Y27.8235
G01 X17.1526 Y27.8002
G01 X16.9876 Y27.6847
G01 X16.8453 Y27.5424
G01 X16.7298 Y27.3774
G01 X16.6448 Y27.1950
G01 X16.5927 Y27.0005
G01 X16.5751 Y26.8000
G01 X16.5927 Y26.5995
G01 X16.6448 Y26.4050
G01 X16.7298 Y26.2226
G01 X16.8453 Y26.0576
G01 X16.9876 Y25.9153
G01 X17.1526 Y25.7998
G01 X17.2021 Y25.7767
G01 X17.2120 Y25.7712
G01 X17.2216 Y25.7651
G01 X17.2335 Y25.7557
G01 X17.2849 Y25.7112
G01 X17.2955 Y25.7011
G01 X17.3028 Y25.6928
G01 X17.3073 Y25.6870
G01 X17.3154 Y25.6748
G01 X17.3223 Y25.6618
G01 X17.3279 Y25.6482
G01 X17.3524 Y25.5672
G01 X17.3547 Y25.5563
G01 X17.3558 Y25.5489
G01 X17.3565 Y25.5415
G01 X17.3569 Y25.5303
G01 X17.3564 Y25.5191
G01 X17.3556 Y25.5117
G01 X17.3530 Y25.4971
G01 X17.3298 Y25.4156
G01 X17.3243 Y25.4017
G01 X17.3174 Y25.3885
G01 X17.3093 Y25.3760
G01 X17.3000 Y25.3644
G01 X17.2949 Y25.3589
G01 X17.2868 Y25.3512
G01 X17.2317 Y25.3027
G01 X17.2203 Y25.2941
G01 X17.2113 Y25.2883
G01 X17.2019 Y25.2832
G01 X17.1526 Y25.2602
G01 X16.9876 Y25.1447
G01 X16.8453 Y25.0024
G01 X16.7298 Y24.8374
G01 X16.6448 Y24.6550
G01 X16.5927 Y24.4605
G01 X16.5751 Y24.2600
G01 X16.5927 Y24.0595
G01 X16.6448 Y23.8650
G01 X16.7298 Y23.6826
G01 X16.8453 Y23.5176
G01 X16.9876 Y23.3753
G01 X17.1526 Y23.2598
G01 X17.2021 Y23.2367
G01 X17.2120 Y23.2312
G01 X17.2216 Y23.2251
G01 X17.2335 Y23.2157
G01 X17.2849 Y23.1712
G01 X17.2955 Y23.1611
G01 X17.3051 Y23.1499
G01 X17.3135 Y23.1379
G01 X17.3173 Y23.1316
G01 X17.3223 Y23.1218
G01 X17.3279 Y23.1082
G01 X17.3524 Y23.0272
G01 X17.3540 Y23.0199
G01 X17.3558 Y23.0089
G01 X17.3567 Y22.9978
G01 X17.3569 Y22.9903
G01 X17.3561 Y22.9754
G01 X17.3545 Y22.9644
G01 X17.3530 Y22.9571
G01 X17.3298 Y22.8756
G01 X17.3243 Y22.8617
G01 X17.3174 Y22.8485
G01 X17.3093 Y22.8360
G01 X17.3000 Y22.8244
G01 X17.2949 Y22.8189
G01 X17.2868 Y22.8112
G01 X17.2317 Y22.7627
G01 X17.2203 Y22.7541
G01 X17.2113 Y22.7483
G01 X17.2019 Y22.7432
G01 X17.1526 Y22.7202
G01 X16.9876 Y22.6047
G01 X16.8453 Y22.4624
G01 X16.7298 Y22.2974
G01 X16.6448 Y22.1150
G01 X16.5927 Y21.9205
G01 X16.5751 Y21.7200
G01 X16.5927 Y21.5195
G01 X16.6448 Y21.3250
G01 X16.7298 Y21.1426
G01 X16.8453 Y20.9776
G01 X16.9876 Y20.8353
G01 X17.1526 Y20.7198
G01 X17.2021 Y20.6967
G01 X17.2120 Y20.6912
G01 X17.2216 Y20.6851
G01 X17.2335 Y20.6757
G01 X17.2849 Y20.6312
G01 X17.2929 Y20.6237
G01 X17.2980 Y20.6184
G01 X17.3073 Y20.6070
G01 X17.3154 Y20.5948
G01 X17.3223 Y20.5818
G01 X17.3279 Y20.5682
G01 X17.3524 Y20.4872
G01 X17.3547 Y20.4763
G01 X17.3558 Y20.4689
G01 X17.3565 Y20.4615
G01 X17.3569 Y20.4503
G01 X17.3564 Y20.4391
G01 X17.3556 Y20.4317
G01 X17.3530 Y20.4171
G01 X17.3298 Y20.3356
G01 X17.3243 Y20.3217
G01 X17.3174 Y20.3085
G01 X17.3093 Y20.2960
G01 X17.3000 Y20.2844
G01 X17.2949 Y20.2789
G01 X17.2868 Y20.2712
G01 X17.2317 Y20.2227
G01 X17.2203 Y20.2141
G01 X17.2113 Y20.2083
G01 X17.2019 Y20.2032
G01 X17.1526 Y20.1802
G01 X16.9876 Y20.0647
G01 X16.8453 Y19.9224
G01 X16.7298 Y19.7574
G01 X16.6448 Y19.5750
G01 X16.5927 Y19.3805
G01 X16.5751 Y19.1800
G01 X16.5927 Y18.9795
G01 X16.6448 Y18.7850
G01 X16.7298 Y18.6026
G01 X16.8453 Y18.4376
G01 X16.9876 Y18.2953
G01 X17.1526 Y18.1798
G01 X17.2027 Y18.1564
G01 X17.2126 Y18.1510
G01 X17.2222 Y18.1448
G01 X17.2341 Y18.1355
G01 X17.2855 Y18.0910
G01 X17.2935 Y18.0834
G01 X17.2986 Y18.0781
G01 X17.3079 Y18.0667
G01 X17.3160 Y18.0545
G01 X17.3229 Y18.0415
G01 X17.3285 Y18.0280
G01 X17.3530 Y17.9469
G01 X17.3546 Y17.9397
G01 X17.3564 Y17.9286
G01 X17.3571 Y17.9212
G01 X17.3575 Y17.9100
G01 X17.3570 Y17.8989
G01 X17.3562 Y17.8915
G01 X17.3536 Y17.8768
G01 X17.3326 Y17.8024
G01 X17.3291 Y17.7918
G01 X17.3233 Y17.7781
G01 X17.3161 Y17.7650
G01 X17.3077 Y17.7527
G01 X17.3006 Y17.7441
G01 X17.2955 Y17.7386
G01 X17.2874 Y17.7309
G01 X17.2350 Y17.6848
G01 X17.2267 Y17.6780
G01 X17.2209 Y17.6738
G01 X17.2119 Y17.6680
G01 X17.2025 Y17.6629
G01 X17.1528 Y17.6397
G01 X16.9880 Y17.5243
G01 X16.8457 Y17.3820
G01 X16.7303 Y17.2172
G01 X16.6476 Y17.0400
G01 X16.8694 Y17.0400
G01 X16.8889 Y17.0813
G01 X16.8940 Y17.0911
G01 X16.9362 Y17.1616
G01 X16.9422 Y17.1708
G01 X16.9956 Y17.2427
G01 X17.0557 Y17.3091
G01 X17.0636 Y17.3168
G01 X17.1273 Y17.3744
G01 X17.1962 Y17.4257
G01 X17.2084 Y17.4338
G01 X17.2758 Y17.4742
G01 X17.2854 Y17.4795
G01 X17.3597 Y17.5147
G01 X17.3733 Y17.5203
G01 X17.4542 Y17.5491
G01 X17.5375 Y17.5701
G01 X17.5519 Y17.5730
G01 X17.6369 Y17.5854
G01 X17.7300 Y17.5900
G01 X17.8231 Y17.5854
G01 X17.9081 Y17.5730
G01 X17.9225 Y17.5701
G01 X18.0058 Y17.5491
G01 X18.0867 Y17.5203
G01 X18.1003 Y17.5147
G01 X18.1746 Y17.4795
G01 X18.1842 Y17.4742
G01 X18.2578 Y17.4299
G01 X18.3269 Y17.3789
G01 X18.3382 Y17.3696
G01 X18.3964 Y17.3168
G01 X18.4043 Y17.3091
G01 X18.4644 Y17.2427
G01 X18.5178 Y17.1708
G01 X18.5238 Y17.1616
G01 X18.5660 Y17.0911
G01 X18.5711 Y17.0813
G01 X18.5906 Y17.0400
G01 X18.8124 Y17.0400
G01 X18.7297 Y17.2172
G01 X18.6143 Y17.3820
G01 X18.4720 Y17.5243
G01 X18.3072 Y17.6397
G01 X18.2573 Y17.6630
G01 X18.2474 Y17.6685
G01 X18.2378 Y17.6747
G01 X18.2259 Y17.6840
G01 X18.1745 Y17.7285
G01 X18.1665 Y17.7360
G01 X18.1566 Y17.7469
G01 X18.1479 Y17.7587
G01 X18.1404 Y17.7713
G01 X18.1341 Y17.7846
G01 X18.1292 Y17.7985
G01 X18.1079 Y17.8689
G01 X18.1047 Y17.8835
G01 X18.1032 Y17.8945
G01 X18.1026 Y17.9057
G01 X18.1028 Y17.9169
G01 X18.1038 Y17.9280
G01 X18.1056 Y17.9390
G01 X18.1083 Y17.9499
G01 X18.1297 Y18.0242
G01 X18.1351 Y18.0380
G01 X18.1384 Y18.0447
G01 X18.1439 Y18.0544
G01 X18.1501 Y18.0637
G01 X18.1546 Y18.0697
G01 X18.1645 Y18.0808
G01 X18.1726 Y18.0885
G01 X18.2250 Y18.1347
G01 X18.2333 Y18.1415
G01 X18.2391 Y18.1457
G01 X18.2481 Y18.1514
G01 X18.2575 Y18.1565
G01 X18.3074 Y18.1798
G01 X18.4724 Y18.2953
G01 X18.6292 Y18.4520
G01 X18.6382 Y18.4600
G01 X18.6647 Y18.4811
G01 X18.6739 Y18.4873
G01 X18.6835 Y18.4927
G01 X18.6934 Y18.4975
G01 X18.7072 Y18.5027
G01 X18.7847 Y18.5253
G01 X18.7987 Y18.5280
G01 X18.8129 Y18.5293
G01 X19.8033 Y18.5295
G01 X19.8358 Y18.5367
G01 X19.8468 Y18.5385
G01 X19.8757 Y18.5418
G01 X19.9072 Y18.5526
G01 X19.9179 Y18.5556
G01 X19.9462 Y18.5621
G01 X19.9724 Y18.5747
G01 X19.9827 Y18.5790
G01 X20.0140 Y18.5902
G01 X20.0387 Y18.6056
G01 X20.0484 Y18.6111
G01 X20.0783 Y18.6257
G01 X20.1044 Y18.6463
G01 X20.1136 Y18.6527
G01 X20.1381 Y18.6682
G01 X21.0575 Y19.5873
G01 X21.0657 Y19.5942
G01 X21.0743 Y19.6006
G01 X21.1281 Y19.6349
G01 X21.1380 Y19.6401
G01 X21.1483 Y19.6446
G01 X21.1590 Y19.6483
G01 X21.1698 Y19.6512
G01 X21.1772 Y19.6526
G01 X21.1883 Y19.6541
G01 X21.2655 Y19.6597
G01 X21.2729 Y19.6598
G01 X21.2841 Y19.6594
G01 X21.2952 Y19.6581
G01 X21.3025 Y19.6568
G01 X21.3098 Y19.6551
G01 X21.3205 Y19.6519
G01 X21.3309 Y19.6479
G01 X21.3377 Y19.6449
G01 X21.4088 Y19.6062
G01 X21.4178 Y19.6006
G01 X21.4237 Y19.5964
G01 X21.4293 Y19.5920
G01 X21.4373 Y19.5849
G01 X21.4954 Y19.5269
G01 X21.6733 Y19.4022
G01 X21.6824 Y19.3949
G01 X21.7017 Y19.3782
G01 X21.7071 Y19.3733
G01 X21.7147 Y19.3655
G01 X21.7217 Y19.3571
G01 X21.7261 Y19.3513
G01 X21.7339 Y19.3390
G01 X21.7688 Y19.2702
G01 X21.7735 Y19.2600
G01 X21.7785 Y19.2460
G01 X21.7821 Y19.2315
G01 X21.7843 Y19.2168
G01 X21.7850 Y19.2019
G01 X21.7842 Y19.1871
G01 X21.7760 Y19.1102
G01 X21.7739 Y19.0992
G01 X21.7721 Y19.0920
G01 X21.7673 Y19.0779
G01 X21.7628 Y19.0676
G01 X21.7594 Y19.0610
G01 X21.7537 Y19.0514
G01 X21.7495 Y19.0453
G01 X21.7013 Y18.9848
G01 X21.6943 Y18.9766
G01 X21.6868 Y18.9690
G01 X21.6787 Y18.9620
G01 X21.6731 Y18.9576
G01 X21.4954 Y18.8331
G01 X21.3469 Y18.6846
G01 X21.2264 Y18.5125
G01 X21.1376 Y18.3222
G01 X21.0832 Y18.1193
G01 X21.0649 Y17.9100
G01 X21.0772 Y17.7676
G01 X21.0770 Y17.7525
G01 X21.0746 Y17.7153
G01 X21.0735 Y17.7045
G01 X21.0709 Y17.6902
G01 X21.0680 Y17.6797
G01 X21.0643 Y17.6694
G01 X21.0599 Y17.6594
G01 X21.0213 Y17.5885
G01 X21.0176 Y17.5824
G01 X21.0115 Y17.5736
G01 X21.0048 Y17.5653
G01 X20.9975 Y17.5575
G01 X19.1385 Y15.6985
G01 X19.1167 Y15.6788
G01 X19.1079 Y15.6723
G01 X19.0987 Y15.6663
G01 X19.0923 Y15.6627
G01 X19.0824 Y15.6580
G01 X19.0109 Y15.6287
G01 X19.0004 Y15.6251
G01 X18.9932 Y15.6232
G01 X18.9822 Y15.6209
G01 X18.9748 Y15.6199
G01 X18.9637 Y15.6190
G01 X18.9563 Y15.6189
G01 X18.9451 Y15.6194
G01 X18.9377 Y15.6202
G01 X18.8543 Y15.6356
G01 X18.8400 Y15.6397
G01 X18.8296 Y15.6438
G01 X18.8228 Y15.6469
G01 X18.8162 Y15.6503
G01 X18.8067 Y15.6561
G01 X18.7975 Y15.6625
G01 X18.7917 Y15.6672
G01 X18.7352 Y15.7200
G01 X18.7274 Y15.7279
G01 X18.7201 Y15.7365
G01 X18.7136 Y15.7455
G01 X18.7095 Y15.7518
G01 X18.7041 Y15.7615
G01 X18.6980 Y15.7751
G01 X18.6934 Y15.7893
G01 X18.6754 Y15.8606
G01 X18.6731 Y15.8716
G01 X18.6713 Y15.8863
G01 X18.6709 Y15.9012
G01 X18.6721 Y15.9161
G01 X18.6747 Y15.9307
G01 X18.6787 Y15.9451
G01 X18.7011 Y16.0113
G01 X18.7063 Y16.0246
G01 X18.7093 Y16.0310
G01 X18.7145 Y16.0404
G01 X18.7297 Y16.0628
G01 X18.8124 Y16.2400
G01 X18.5906 Y16.2400
G01 X18.5711 Y16.1987
G01 X18.5660 Y16.1889
G01 X18.5238 Y16.1184
G01 X18.5178 Y16.1092
G01 X18.4644 Y16.0373
G01 X18.4043 Y15.9709
G01 X18.3964 Y15.9632
G01 X18.3327 Y15.9056
G01 X18.2638 Y15.8543
G01 X18.2516 Y15.8462
G01 X18.1842 Y15.8058
G01 X18.1746 Y15.8005
G01 X18.1003 Y15.7653
G01 X18.0867 Y15.7597
G01 X18.0058 Y15.7309
G01 X17.9225 Y15.7099
G01 X17.9081 Y15.7070
G01 X17.8231 Y15.6946
G01 X17.7300 Y15.6900
G01 X17.6369 Y15.6946
G01 X17.5519 Y15.7070
G01 X17.5375 Y15.7099
G01 X17.4542 Y15.7309
G01 X17.3733 Y15.7597
G01 X17.3597 Y15.7653
G01 X17.2854 Y15.8005
G01 X17.2758 Y15.8058
G01 X17.2022 Y15.8501
G01 X17.1331 Y15.9011
G01 X17.1218 Y15.9104
G01 X17.0636 Y15.9632
G01 X17.0557 Y15.9709
G01 X16.9956 Y16.0373
G01 X16.9422 Y16.1092
G01 X16.9362 Y16.1184
G01 X16.8940 Y16.1889
G01 X16.8889 Y16.1987
G01 X16.8694 Y16.2400
G01 X16.6476 Y16.2400
G01 X16.7303 Y16.0628
G01 X16.8457 Y15.8980
G01 X16.9880 Y15.7557
G01 X17.1528 Y15.6403
G01 X17.2027 Y15.6170
G01 X17.2126 Y15.6115
G01 X17.2222 Y15.6053
G01 X17.2341 Y15.5960
G01 X17.2882 Y15.5491
G01 X17.2961 Y15.5414
G01 X17.3034 Y15.5331
G01 X17.3121 Y15.5213
G01 X17.3179 Y15.5119
G01 X17.3244 Y15.4988
G01 X17.3297 Y15.4850
G01 X17.3510 Y15.4147
G01 X17.3539 Y15.4039
G01 X17.3559 Y15.3929
G01 X17.3568 Y15.3855
G01 X17.3573 Y15.3780
G01 X17.3574 Y15.3669
G01 X17.3562 Y15.3520
G01 X17.3551 Y15.3447
G01 X17.3527 Y15.3337
G01 X17.3326 Y15.2629
G01 X17.3291 Y15.2523
G01 X17.3233 Y15.2386
G01 X17.3161 Y15.2256
G01 X17.3077 Y15.2133
G01 X17.2981 Y15.2019
G01 X17.2874 Y15.1915
G01 X17.2350 Y15.1453
G01 X17.2267 Y15.1385
G01 X17.2210 Y15.1344
G01 X17.2120 Y15.1286
G01 X17.2026 Y15.1235
G01 X17.1526 Y15.1002
G01 X16.9876 Y14.9847
G01 X16.8453 Y14.8424
G01 X16.7298 Y14.6774
G01 X16.6448 Y14.4950
G01 X16.5927 Y14.3005
G01 X16.5751 Y14.1000
G01 X16.5927 Y13.8995
G01 X16.6448 Y13.7050
G01 X16.7298 Y13.5226
G01 X16.8453 Y13.3576
G01 X16.9876 Y13.2153
G01 X17.1526 Y13.0998
G01 X17.2021 Y13.0767
G01 X17.2120 Y13.0712
G01 X17.2216 Y13.0651
G01 X17.2335 Y13.0557
G01 X17.2849 Y13.0112
G01 X17.2955 Y13.0011
G01 X17.3051 Y12.9899
G01 X17.3135 Y12.9779
G01 X17.3173 Y12.9716
G01 X17.3223 Y12.9618
G01 X17.3279 Y12.9482
G01 X17.3524 Y12.8672
G01 X17.3540 Y12.8599
G01 X17.3558 Y12.8489
G01 X17.3567 Y12.8378
G01 X17.3569 Y12.8303
G01 X17.3564 Y12.8191
G01 X17.3556 Y12.8117
G01 X17.3530 Y12.7971
G01 X17.3298 Y12.7156
G01 X17.3243 Y12.7017
G01 X17.3174 Y12.6885
G01 X17.3093 Y12.6760
G01 X17.3000 Y12.6644
G01 X17.2949 Y12.6589
G01 X17.2868 Y12.6512
G01 X17.2317 Y12.6027
G01 X17.2203 Y12.5941
G01 X17.2113 Y12.5883
G01 X17.2019 Y12.5832
G01 X17.1526 Y12.5602
G01 X16.9876 Y12.4447
G01 X16.8453 Y12.3024
G01 X16.7298 Y12.1374
G01 X16.6448 Y11.9550
G01 X16.5927 Y11.7605
G01 X16.5751 Y11.5600
G01 X16.5927 Y11.3595
G01 X16.6448 Y11.1650
G01 X16.7298 Y10.9826
G01 X16.8453 Y10.8176
G01 X16.9876 Y10.6753
G01 X17.1526 Y10.5598
G01 X17.2021 Y10.5367
G01 X17.2120 Y10.5312
G01 X17.2216 Y10.5251
G01 X17.2335 Y10.5157
G01 X17.2849 Y10.4712
G01 X17.2955 Y10.4611
G01 X17.3051 Y10.4499
G01 X17.3135 Y10.4379
G01 X17.3173 Y10.4316
G01 X17.3223 Y10.4218
G01 X17.3279 Y10.4082
G01 X17.3524 Y10.3272
G01 X17.3540 Y10.3199
G01 X17.3558 Y10.3089
G01 X17.3567 Y10.2978
G01 X17.3569 Y10.2903
G01 X17.3561 Y10.2754
G01 X17.3545 Y10.2644
G01 X17.3530 Y10.2571
G01 X17.3298 Y10.1756
G01 X17.3243 Y10.1617
G01 X17.3174 Y10.1485
G01 X17.3093 Y10.1360
G01 X17.3000 Y10.1244
G01 X17.2949 Y10.1189
G01 X17.2868 Y10.1112
G01 X17.2317 Y10.0627
G01 X17.2203 Y10.0541
G01 X17.2113 Y10.0483
G01 X17.2019 Y10.0432
G01 X17.1526 Y10.0202
G01 X16.9876 Y9.9047
G01 X16.8453 Y9.7624
G01 X16.7298 Y9.5974
G01 X16.6448 Y9.4150
G01 X16.5927 Y9.2205
G01 X16.5751 Y9.0200
G01 X16.5927 Y8.8195
G01 X16.6448 Y8.6250
G01 X16.7298 Y8.4426
G01 X16.8453 Y8.2776
G01 X16.9876 Y8.1353
G01 X17.1526 Y8.0198
G01 X17.3350 Y7.9348
G01 X17.5295 Y7.8827
G01 X17.7300 Y7.8651
G01 X17.9305 Y7.8827
G01 X18.1250 Y7.9348
G01 X18.2978 Y8.0152
G01 X18.3103 Y8.0204
G01 X18.3209 Y8.0241
G01 X18.3355 Y8.0277
G01 X18.3466 Y8.0295
G01 X18.4312 Y8.0356
G01 X18.4424 Y8.0354
G01 X18.4498 Y8.0348
G01 X18.4572 Y8.0339
G01 X18.4682 Y8.0318
G01 X18.4790 Y8.0289
G01 X18.4860 Y8.0265
G01 X18.4964 Y8.0223
G01 X18.5031 Y8.0190
G01 X18.5708 Y7.9820
G01 X18.5799 Y7.9764
G01 X18.5857 Y7.9722
G01 X18.5940 Y7.9655
G01 X18.6019 Y7.9582
G01 X20.5919 Y5.9682
G01 X20.6164 Y5.9527
G01 X20.6256 Y5.9463
G01 X20.6517 Y5.9257
G01 X20.6816 Y5.9111
G01 X20.6913 Y5.9056
G01 X20.7160 Y5.8902
G01 X20.7473 Y5.8790
G01 X20.7576 Y5.8747
G01 X20.7838 Y5.8621
G01 X20.8121 Y5.8556
G01 X20.8269 Y5.8513
G01 X20.8639 Y5.8385
G01 X20.8924 Y5.8295
G01 X20.9025 Y5.8254
G01 X20.9122 Y5.8207
G01 X20.9246 Y5.8132
G01 X20.9334 Y5.8069
G01 X20.9915 Y5.7617
G01 X21.0025 Y5.7516
G01 X21.0102 Y5.7434
G01 X21.0172 Y5.7346
G01 X21.0254 Y5.7221
G01 X21.0308 Y5.7123
G01 X21.0368 Y5.6986
G01 X21.0595 Y5.6384
G01 X21.0641 Y5.6239
G01 X21.0673 Y5.6090
G01 X21.0730 Y5.5573
G01 X21.1092 Y5.4603
G01 X21.1696 Y5.3796
G01 X21.2503 Y5.3192
G01 X21.3473 Y5.2830
G01 X21.3802 Y5.2795
G01 X23.1598 Y5.2795
G01 X23.1927 Y5.2830
G01 X23.2446 Y5.3023
G01 X23.2548 Y5.3055
G01 X23.2652 Y5.3079
G01 X23.3282 Y5.3170
G01 X23.3394 Y5.3179
G01 X23.3506 Y5.3180
G01 X23.3618 Y5.3172
G01 X23.3730 Y5.3156
G01 X23.3839 Y5.3132
G01 X23.3947 Y5.3099
G01 X23.4672 Y5.2829
G01 X23.4774 Y5.2783
G01 X23.4904 Y5.2711
G01 X23.4997 Y5.2649
G01 X23.5112 Y5.2555
G01 X23.5218 Y5.2450
G01 X23.5291 Y5.2365
G01 X23.5775 Y5.1715
G01 X23.5834 Y5.1621
G01 X23.5870 Y5.1555
G01 X23.5930 Y5.1419
G01 X23.5955 Y5.1349
G01 X23.5986 Y5.1241
G01 X23.6010 Y5.1132
G01 X23.6020 Y5.1058
G01 X23.6080 Y5.0250
G01 X23.6081 Y5.0138
G01 X23.6073 Y5.0027
G01 X23.6058 Y4.9916
G01 X23.6024 Y4.9771
G01 X23.5990 Y4.9665
G01 X23.5963 Y4.9596
G01 X23.5898 Y4.9461
G01 X23.5545 Y4.8817
G01 X23.5468 Y4.8697
G01 X23.5380 Y4.8585
G01 X23.5307 Y4.8506
G01 X23.3479 Y4.6680
G01 X23.3389 Y4.6600
G01 X23.3182 Y4.6434
G01 X23.3063 Y4.6347
G01 X23.2969 Y4.6290
G01 X23.2870 Y4.6240
G01 X23.2768 Y4.6198
G01 X23.2664 Y4.6163
G01 X23.1924 Y4.5947
G01 X23.1784 Y4.5920
G01 X23.1713 Y4.5912
G01 X23.1606 Y4.5905
G01 X19.6567 Y4.5905
G01 X19.6242 Y4.5833
G01 X19.6132 Y4.5815
G01 X19.5843 Y4.5782
G01 X19.5529 Y4.5674
G01 X19.5421 Y4.5644
G01 X19.5138 Y4.5579
G01 X19.4876 Y4.5453
G01 X19.4773 Y4.5410
G01 X19.4460 Y4.5298
G01 X19.4213 Y4.5144
G01 X19.4116 Y4.5089
G01 X19.3817 Y4.4943
G01 X19.3556 Y4.4737
G01 X19.3464 Y4.4673
G01 X19.3219 Y4.4518
G01 X18.2650 Y3.3952
G01 X18.2382 Y3.3734
G01 X18.2294 Y3.3668
G01 X18.2169 Y3.3590
G01 X18.2037 Y3.3525
G01 X18.1934 Y3.3485
G01 X18.1864 Y3.3463
G01 X18.1159 Y3.3256
G01 X18.1054 Y3.3232
G01 X18.0913 Y3.3212
G01 X18.0771 Y3.3205
G01 X9.9489 Y3.3206
G01 X9.9369 Y3.3214
G01 X9.9105 Y3.3242
G01 X9.8996 Y3.3258
G01 X9.8853 Y3.3291
G01 X9.8783 Y3.3313
G01 X9.8679 Y3.3353
G01 X9.8547 Y3.3417
G01 X9.7903 Y3.3769
G01 X9.7812 Y3.3826
G01 X9.7754 Y3.3867
G01 X9.7670 Y3.3935
G01 X9.7617 Y3.3983
G01 X8.3008 Y4.8592
G01 X8.2926 Y4.8680
G01 X8.2689 Y4.8976
G01 X8.2608 Y4.9099
G01 X8.2540 Y4.9230
G01 X8.2498 Y4.9332
G01 X8.2473 Y4.9401
G01 X8.2256 Y5.0141
G01 X8.2232 Y5.0246
G01 X8.2216 Y5.0351
G01 X8.2207 Y5.0458
G01 X8.2205 Y5.0529
G01 X8.2205 Y7.9300
G01 X8.2210 Y7.9420
G01 X8.2242 Y7.9723
G01 X8.2258 Y7.9833
G01 X8.2291 Y7.9976
G01 X8.2326 Y8.0081
G01 X8.2368 Y8.0183
G01 X8.2417 Y8.0282
G01 X8.2752 Y8.0895
G01 X8.2806 Y8.0987
G01 X8.2867 Y8.1075
G01 X8.2935 Y8.1159
G01 X8.3008 Y8.1237
G01 X8.4547 Y8.2776
G01 X8.5702 Y8.4426
G01 X8.6552 Y8.6250
G01 X8.7074 Y8.8195
G01 X8.7249 Y9.0200
G01 X8.7073 Y9.2206
G01 X8.6552 Y9.4150
G01 X8.5702 Y9.5974
G01 X8.4547 Y9.7624
G01 X8.3124 Y9.9047
G01 X8.1474 Y10.0202
G01 X8.0979 Y10.0433
G01 X8.0880 Y10.0488
G01 X8.0784 Y10.0549
G01 X8.0665 Y10.0643
G01 X8.0151 Y10.1088
G01 X8.0071 Y10.1163
G01 X8.0020 Y10.1216
G01 X7.9927 Y10.1330
G01 X7.9865 Y10.1421
G01 X7.9827 Y10.1484
G01 X7.9761 Y10.1615
G01 X7.9709 Y10.1752
G01 X7.9496 Y10.2456
G01 X7.9467 Y10.2564
G01 X7.9447 Y10.2674
G01 X7.9435 Y10.2785
G01 X7.9431 Y10.2897
G01 X7.9436 Y10.3009
G01 X7.9455 Y10.3156
G01 X7.9479 Y10.3265
G01 X7.9680 Y10.3973
G01 X7.9715 Y10.4079
G01 X7.9773 Y10.4217
G01 X7.9845 Y10.4347
G01 X7.9929 Y10.4470
G01 X8.0025 Y10.4584
G01 X8.0132 Y10.4688
G01 X8.0656 Y10.5150
G01 X8.0739 Y10.5217
G01 X8.0797 Y10.5259
G01 X8.0887 Y10.5317
G01 X8.0981 Y10.5368
G01 X8.1474 Y10.5598
G01 X8.3124 Y10.6753
G01 X8.4547 Y10.8176
G01 X8.5702 Y10.9826
G01 X8.6552 Y11.1650
G01 X8.7074 Y11.3595
G01 X8.7249 Y11.5600
G01 X8.7073 Y11.7606
G01 X8.6552 Y11.9550
G01 X8.5702 Y12.1374
G01 X8.4547 Y12.3024
G01 X8.3124 Y12.4447
G01 X8.1474 Y12.5602
G01 X8.0979 Y12.5833
G01 X8.0880 Y12.5888
G01 X8.0784 Y12.5949
G01 X8.0665 Y12.6043
G01 X8.0151 Y12.6488
G01 X8.0097 Y12.6537
G01 X8.0020 Y12.6616
G01 X7.9949 Y12.6701
G01 X7.9906 Y12.6760
G01 X7.9827 Y12.6884
G01 X7.9761 Y12.7015
G01 X7.9709 Y12.7152
G01 X7.9496 Y12.7856
G01 X7.9467 Y12.7964
G01 X7.9453 Y12.8037
G01 X7.9438 Y12.8148
G01 X7.9432 Y12.8260
G01 X7.9434 Y12.8371
G01 X7.9449 Y12.8519
G01 X7.9479 Y12.8665
G01 X7.9680 Y12.9373
G01 X7.9715 Y12.9479
G01 X7.9773 Y12.9617
G01 X7.9845 Y12.9747
G01 X7.9929 Y12.9870
G01 X8.0025 Y12.9984
G01 X8.0132 Y13.0088
G01 X8.0656 Y13.0550
G01 X8.0711 Y13.0595
G01 X8.0797 Y13.0659
G01 X8.0887 Y13.0717
G01 X8.0981 Y13.0768
G01 X8.1474 Y13.0998
G01 X8.3124 Y13.2153
G01 X8.4547 Y13.3576
G01 X8.5702 Y13.5226
G01 X8.6552 Y13.7050
G01 X8.7074 Y13.8995
G01 X8.7249 Y14.1000
G01 X8.7073 Y14.3006
G01 X8.6552 Y14.4950
G01 X8.5702 Y14.6774
G01 X8.4547 Y14.8424
G01 X8.3124 Y14.9847
G01 X8.1474 Y15.1002
G01 X8.0979 Y15.1233
G01 X8.0880 Y15.1288
G01 X8.0784 Y15.1349
G01 X8.0665 Y15.1443
G01 X8.0151 Y15.1888
G01 X8.0071 Y15.1963
G01 X8.0020 Y15.2016
G01 X7.9927 Y15.2130
G01 X7.9865 Y15.2221
G01 X7.9827 Y15.2284
G01 X7.9761 Y15.2415
G01 X7.9709 Y15.2552
G01 X7.9496 Y15.3256
G01 X7.9467 Y15.3364
G01 X7.9447 Y15.3474
G01 X7.9438 Y15.3548
G01 X7.9432 Y15.3660
G01 X7.9432 Y15.3734
G01 X7.9436 Y15.3809
G01 X7.9449 Y15.3919
G01 X7.9479 Y15.4065
G01 X7.9680 Y15.4773
G01 X7.9715 Y15.4879
G01 X7.9773 Y15.5017
G01 X7.9845 Y15.5147
G01 X7.9929 Y15.5270
G01 X8.0025 Y15.5384
G01 X8.0132 Y15.5488
G01 X8.0656 Y15.5950
G01 X8.0739 Y15.6017
G01 X8.0797 Y15.6059
G01 X8.0887 Y15.6117
G01 X8.0981 Y15.6168
G01 X8.1474 Y15.6398
G01 X8.3124 Y15.7553
G01 X8.4547 Y15.8976
G01 X8.5702 Y16.0626
G01 X8.6552 Y16.2450
G01 X8.7074 Y16.4395
G01 X8.7249 Y16.6400
G01 X8.7073 Y16.8406
G01 X8.6552 Y17.0350
G01 X8.5702 Y17.2174
G01 X8.4547 Y17.3824
G01 X8.3124 Y17.5247
G01 X8.1474 Y17.6402
G01 X8.0979 Y17.6633
G01 X8.0880 Y17.6688
G01 X8.0784 Y17.6749
G01 X8.0665 Y17.6843
G01 X8.0151 Y17.7288
G01 X8.0071 Y17.7363
G01 X8.0020 Y17.7416
G01 X7.9927 Y17.7530
G01 X7.9846 Y17.7652
G01 X7.9793 Y17.7749
G01 X7.9761 Y17.7815
G01 X7.9709 Y17.7952
G01 X7.9496 Y17.8656
G01 X7.9467 Y17.8764
G01 X7.9453 Y17.8837
G01 X7.9438 Y17.8948
G01 X7.9433 Y17.9022
G01 X7.9432 Y17.9134
G01 X7.9436 Y17.9209
G01 X7.9449 Y17.9319
G01 X7.9479 Y17.9465
G01 X7.9680 Y18.0173
G01 X7.9715 Y18.0279
G01 X7.9773 Y18.0417
G01 X7.9845 Y18.0547
G01 X7.9929 Y18.0670
G01 X8.0025 Y18.0784
G01 X8.0132 Y18.0888
G01 X8.0656 Y18.1350
G01 X8.0739 Y18.1417
G01 X8.0797 Y18.1459
G01 X8.0887 Y18.1517
G01 X8.0981 Y18.1568
G01 X8.1474 Y18.1798
G01 X8.3124 Y18.2953
G01 X8.4547 Y18.4376
G01 X8.5702 Y18.6026
G01 X8.6552 Y18.7850
G01 X8.7074 Y18.9795
G01 X8.7249 Y19.1800
G01 X8.7073 Y19.3806
G01 X8.6552 Y19.5750
G01 X8.5702 Y19.7574
G01 X8.4547 Y19.9224
G01 X8.3124 Y20.0647
G01 X8.1474 Y20.1802
G01 X8.0979 Y20.2033
G01 X8.0880 Y20.2088
G01 X8.0784 Y20.2149
G01 X8.0665 Y20.2243
G01 X8.0151 Y20.2688
G01 X8.0097 Y20.2737
G01 X8.0020 Y20.2816
G01 X7.9927 Y20.2930
G01 X7.9846 Y20.3052
G01 X7.9777 Y20.3182
G01 X7.9733 Y20.3283
G01 X7.9709 Y20.3352
G01 X7.9496 Y20.4056
G01 X7.9467 Y20.4164
G01 X7.9447 Y20.4274
G01 X7.9438 Y20.4348
G01 X7.9432 Y20.4460
G01 X7.9432 Y20.4534
G01 X7.9444 Y20.4683
G01 X7.9455 Y20.4756
G01 X7.9479 Y20.4865
G01 X7.9680 Y20.5573
G01 X7.9728 Y20.5714
G01 X7.9790 Y20.5850
G01 X7.9845 Y20.5947
G01 X7.9885 Y20.6010
G01 X7.9952 Y20.6099
G01 X8.0000 Y20.6156
G01 X8.0077 Y20.6237
G01 X8.0132 Y20.6288
G01 X8.0683 Y20.6773
G01 X8.0797 Y20.6859
G01 X8.0887 Y20.6917
G01 X8.0981 Y20.6968
G01 X8.1474 Y20.7198
G01 X8.3124 Y20.8353
G01 X8.4692 Y20.9920
G01 X8.4782 Y21.0000
G01 X8.4989 Y21.0166
G01 X8.5077 Y21.0232
G01 X8.5170 Y21.0292
G01 X8.5268 Y21.0344
G01 X8.5334 Y21.0375
G01 X8.5437 Y21.0415
G01 X8.6178 Y21.0634
G01 X8.6247 Y21.0653
G01 X8.6352 Y21.0674
G01 X8.6493 Y21.0691
G01 X8.6600 Y21.0695
G01 X9.1871 Y21.0695
G01 X9.1991 Y21.0690
G01 X9.2295 Y21.0658
G01 X9.2404 Y21.0642
G01 X9.2547 Y21.0609
G01 X9.2652 Y21.0574
G01 X9.2754 Y21.0532
G01 X9.2853 Y21.0483
G01 X9.3466 Y21.0148
G01 X9.3558 Y21.0094
G01 X9.3646 Y21.0033
G01 X9.3702 Y20.9988
G01 X9.3808 Y20.9892
G01 X10.1148 Y20.2550
G01 X10.1366 Y20.2282
G01 X10.1432 Y20.2194
G01 X10.1510 Y20.2069
G01 X10.1575 Y20.1937
G01 X10.1627 Y20.1799
G01 X10.1834 Y20.1093
G01 X10.1861 Y20.0989
G01 X10.1884 Y20.0849
G01 X10.1891 Y20.0778
G01 X10.1895 Y20.0671
G01 X10.1895 Y8.9167
G01 X10.1959 Y8.8883
G01 X10.1978 Y8.8774
G01 X10.2018 Y8.8443
G01 X10.2126 Y8.8128
G01 X10.2156 Y8.8021
G01 X10.2221 Y8.7738
G01 X10.2347 Y8.7476
G01 X10.2390 Y8.7373
G01 X10.2502 Y8.7060
G01 X10.2656 Y8.6813
G01 X10.2711 Y8.6716
G01 X10.2857 Y8.6417
G01 X10.3063 Y8.6155
G01 X10.3127 Y8.6064
G01 X10.3282 Y8.5819
G01 X12.3946 Y6.5154
G01 X12.4045 Y6.5038
G01 X12.4281 Y6.4731
G01 X12.4358 Y6.4608
G01 X12.4423 Y6.4478
G01 X12.4464 Y6.4377
G01 X12.4497 Y6.4272
G01 X12.4676 Y6.3560
G01 X12.4705 Y6.3413
G01 X12.4717 Y6.3302
G01 X12.4721 Y6.3154
G01 X12.4709 Y6.3005
G01 X12.4683 Y6.2858
G01 X12.4642 Y6.2715
G01 X12.4419 Y6.2053
G01 X12.4381 Y6.1953
G01 X12.4336 Y6.1856
G01 X12.4285 Y6.1762
G01 X12.4227 Y6.1672
G01 X12.3169 Y6.0162
G01 X12.3096 Y6.0072
G01 X12.2929 Y5.9879
G01 X12.2828 Y5.9773
G01 X12.2747 Y5.9701
G01 X12.2660 Y5.9635
G01 X12.2599 Y5.9594
G01 X12.2505 Y5.9539
G01 X12.1815 Y5.9191
G01 X12.1678 Y5.9134
G01 X12.1535 Y5.9091
G01 X12.1426 Y5.9068
G01 X12.1315 Y5.9053
G01 X12.1204 Y5.9046
G01 X12.1129 Y5.9046
G01 X12.1018 Y5.9054
G01 X12.0323 Y5.9126
G01 X12.0212 Y5.9141
G01 X12.0067 Y5.9175
G01 X11.9926 Y5.9223
G01 X11.9790 Y5.9284
G01 X11.9661 Y5.9359
G01 X11.9540 Y5.9446
G01 X11.8995 Y5.9882
G01 X11.8913 Y5.9952
G01 X11.8862 Y6.0002
G01 X11.8767 Y6.0108
G01 X11.8702 Y6.0194
G01 X11.7478 Y6.1943
G01 X11.5993 Y6.3428
G01 X11.4273 Y6.4632
G01 X11.2370 Y6.5519
G01 X11.2250 Y6.5552
G01 X11.2250 Y6.3359
G01 X11.2964 Y6.3019
G01 X11.3806 Y6.2515
G01 X11.4594 Y6.1930
G01 X11.5268 Y6.1322
G01 X11.5372 Y6.1218
G01 X11.5932 Y6.0600
G01 X11.6025 Y6.0486
G01 X11.6565 Y5.9756
G01 X11.7069 Y5.8914
G01 X11.7489 Y5.8027
G01 X11.7796 Y5.7173
G01 X11.7839 Y5.7032
G01 X11.8058 Y5.6151
G01 X11.8193 Y5.5253
G01 X11.8207 Y5.5107
G01 X11.8250 Y5.4200
G01 X11.8207 Y5.3293
G01 X11.8193 Y5.3147
G01 X11.8058 Y5.2249
G01 X11.7839 Y5.1368
G01 X11.7796 Y5.1227
G01 X11.7489 Y5.0373
G01 X11.7069 Y4.9486
G01 X11.6565 Y4.8644
G01 X11.6025 Y4.7914
G01 X11.5932 Y4.7800
G01 X11.5372 Y4.7182
G01 X11.5268 Y4.7078
G01 X11.4594 Y4.6470
G01 X11.3806 Y4.5885
G01 X11.2964 Y4.5381
G01 X11.2250 Y4.5041
G01 X11.2250 Y4.2848
G01 X11.2370 Y4.2881
G01 X11.4273 Y4.3768
G01 X11.5993 Y4.4972
G01 X11.7478 Y4.6457
G01 X11.8725 Y4.8238
G01 X11.8798 Y4.8328
G01 X11.8965 Y4.8521
G01 X11.9014 Y4.8575
G01 X11.9092 Y4.8651
G01 X11.9205 Y4.8744
G01 X11.9295 Y4.8806
G01 X11.9357 Y4.8843
G01 X12.0045 Y4.9193
G01 X12.0147 Y4.9239
G01 X12.0287 Y4.9290
G01 X12.0431 Y4.9326
G01 X12.0579 Y4.9347
G01 X12.0728 Y4.9354
G01 X12.0876 Y4.9346
G01 X12.1645 Y4.9265
G01 X12.1755 Y4.9244
G01 X12.1827 Y4.9225
G01 X12.1968 Y4.9177
G01 X12.2070 Y4.9132
G01 X12.2137 Y4.9098
G01 X12.2201 Y4.9061
G01 X12.2294 Y4.8999
G01 X12.2899 Y4.8518
G01 X12.2980 Y4.8448
G01 X12.3056 Y4.8372
G01 X12.3127 Y4.8292
G01 X12.3171 Y4.8235
G01 X12.4419 Y4.6454
G01 X12.5904 Y4.4969
G01 X12.7625 Y4.3764
G01 X12.9528 Y4.2876
G01 X13.1557 Y4.2332
G01 X13.3650 Y4.2149
G01 X13.5743 Y4.2332
G01 X13.7772 Y4.2876
G01 X13.9675 Y4.3764
G01 X14.1396 Y4.4969
G01 X14.2574 Y4.6144
G01 X14.2656 Y4.6213
G01 X14.2967 Y4.6447
G01 X14.3092 Y4.6531
G01 X14.3192 Y4.6586
G01 X14.3295 Y4.6633
G01 X14.3401 Y4.6672
G01 X14.3510 Y4.6703
G01 X14.4266 Y4.6868
G01 X14.4414 Y4.6888
G01 X14.4563 Y4.6894
G01 X14.4674 Y4.6889
G01 X14.4785 Y4.6876
G01 X14.4895 Y4.6854
G01 X14.4967 Y4.6835
G01 X14.5073 Y4.6800
G01 X14.5727 Y4.6556
G01 X14.5864 Y4.6497
G01 X14.5963 Y4.6444
G01 X14.6087 Y4.6362
G01 X14.6203 Y4.6268
G01 X14.6283 Y4.6191
G01 X14.6381 Y4.6079
G01 X14.6823 Y4.5490
G01 X14.6903 Y4.5372
G01 X14.6955 Y4.5278
G01 X14.7014 Y4.5148
G01 X14.7442 Y4.4003
G01 X14.8046 Y4.3196
G01 X14.8853 Y4.2592
G01 X14.9823 Y4.2230
G01 X15.0152 Y4.2195
G01 X16.7948 Y4.2195
G01 X16.8277 Y4.2230
G01 X16.9247 Y4.2592
G01 X17.0054 Y4.3196
G01 X17.0658 Y4.4003
G01 X17.1020 Y4.4973
G01 X17.1055 Y4.5302
G01 X17.1055 Y6.3098
G01 X17.1020 Y6.3427
G01 X17.0658 Y6.4397
G01 X17.0054 Y6.5204
G01 X16.9247 Y6.5808
G01 X16.8277 Y6.6170
G01 X16.7948 Y6.6205
G01 X16.7406 Y6.6205
G01 X16.7294 Y6.6213
G01 X16.7219 Y6.6222
G01 X16.7072 Y6.6252
G01 X16.6387 Y6.6445
G01 X16.6282 Y6.6479
G01 X16.6181 Y6.6520
G01 X16.6115 Y6.6551
G01 X16.6019 Y6.6605
G01 X16.5957 Y6.6644
G01 X16.5868 Y6.6709
G01 X16.5812 Y6.6755
G01 X16.5732 Y6.6830
G01 X16.5213 Y6.7401
G01 X16.5144 Y6.7483
G01 X16.5102 Y6.7541
G01 X16.5043 Y6.7631
G01 X16.4997 Y6.7711
G01 X16.4773 Y6.8073
G01 X16.4719 Y6.8171
G01 X16.4593 Y6.8433
G01 X16.4387 Y6.8694
G01 X16.4323 Y6.8786
G01 X16.4168 Y6.9031
G01 X15.3752 Y7.9450
G01 X15.3534 Y7.9718
G01 X15.3468 Y7.9806
G01 X15.3390 Y7.9931
G01 X15.3325 Y8.0063
G01 X15.3273 Y8.0201
G01 X15.3066 Y8.0907
G01 X15.3039 Y8.1011
G01 X15.3016 Y8.1151
G01 X15.3009 Y8.1222
G01 X15.3005 Y8.1329
G01 X15.3005 Y21.7933
G01 X15.2933 Y21.8258
G01 X15.2915 Y21.8368
G01 X15.2882 Y21.8657
G01 X15.2787 Y21.8931
G01 X15.2755 Y21.9038
G01 X15.2679 Y21.9362
G01 X15.2537 Y21.9663
G01 X15.2494 Y21.9766
G01 X15.2398 Y22.0040
G01 X15.2223 Y22.0323
G01 X15.2169 Y22.0421
G01 X15.2043 Y22.0683
G01 X15.1837 Y22.0944
G01 X15.1773 Y22.1036
G01 X15.1618 Y22.1281
G01 X15.0823 Y22.2076
G01 X12.5181 Y24.7718
G01 X12.4936 Y24.7873
G01 X12.4844 Y24.7937
G01 X12.4583 Y24.8143
G01 X12.4321 Y24.8269
G01 X12.4223 Y24.8323
G01 X12.3940 Y24.8498
G01 X12.3666 Y24.8594
G01 X12.3563 Y24.8637
G01 X12.3262 Y24.8779
G01 X12.2979 Y24.8844
G01 X12.2871 Y24.8874
G01 X12.2557 Y24.8982
G01 X12.2226 Y24.9022
G01 X12.2116 Y24.9041
G01 X12.1833 Y24.9105
G01 X8.6600 Y24.9105
G01 X8.6480 Y24.9110
G01 X8.6140 Y24.9146
G01 X8.6031 Y24.9165
G01 X8.5924 Y24.9191
G01 X8.5819 Y24.9226
G01 X8.5717 Y24.9268
G01 X8.5618 Y24.9317
G01 X8.5005 Y24.9652
G01 X8.4943 Y24.9687
G01 X8.4854 Y24.9746
G01 X8.4741 Y24.9835
G01 X8.4663 Y24.9908
G01 X8.3124 Y25.1447
G01 X8.1474 Y25.2602
G01 X8.0946 Y25.2850
G01 X8.0880 Y25.2888
G01 X8.0784 Y25.2949
G01 X8.0665 Y25.3043
G01 X8.0097 Y25.3537
G01 X8.0045 Y25.3589
G01 X7.9972 Y25.3672
G01 X7.9927 Y25.3730
G01 X7.9865 Y25.3821
G01 X7.9827 Y25.3884
G01 X7.9777 Y25.3982
G01 X7.9721 Y25.4118
G01 X7.9485 Y25.4892
G01 X7.9460 Y25.5001
G01 X7.9447 Y25.5074
G01 X7.9435 Y25.5185
G01 X7.9432 Y25.5260
G01 X7.9434 Y25.5371
G01 X7.9439 Y25.5446
G01 X7.9455 Y25.5556
G01 X7.9470 Y25.5629
G01 X7.9680 Y25.6373
G01 X7.9728 Y25.6514
G01 X7.9773 Y25.6617
G01 X7.9845 Y25.6747
G01 X7.9907 Y25.6840
G01 X7.9975 Y25.6928
G01 X8.0051 Y25.7011
G01 X8.0132 Y25.7088
G01 X8.0656 Y25.7550
G01 X8.0767 Y25.7639
G01 X8.0887 Y25.7717
G01 X8.0981 Y25.7768
G01 X8.1474 Y25.7998
G01 X8.3124 Y25.9153
G01 X8.4547 Y26.0576
G01 X8.5702 Y26.2226
G01 X8.6552 Y26.4050
G01 X8.7074 Y26.5995
G01 X8.7249 Y26.8000
G01 X8.7073 Y27.0006
G01 X8.6552 Y27.1950
G01 X8.5702 Y27.3774
G01 X8.4547 Y27.5424
G01 X8.3124 Y27.6847
G01 X8.1474 Y27.8002
G01 X8.0979 Y27.8233
G01 X8.0880 Y27.8288
G01 X8.0784 Y27.8349
G01 X8.0665 Y27.8443
G01 X8.0151 Y27.8888
G01 X8.0097 Y27.8937
G01 X8.0020 Y27.9016
G01 X7.9927 Y27.9130
G01 X7.9865 Y27.9221
G01 X7.9793 Y27.9349
G01 X7.9733 Y27.9483
G01 X7.9698 Y27.9587
G01 X7.9485 Y28.0292
G01 X7.9453 Y28.0437
G01 X7.9435 Y28.0585
G01 X7.9432 Y28.0660
G01 X7.9434 Y28.0771
G01 X7.9444 Y28.0883
G01 X7.9462 Y28.0993
G01 X7.9489 Y28.1101
G01 X7.9691 Y28.1809
G01 X7.9742 Y28.1949
G01 X7.9807 Y28.2083
G01 X7.9885 Y28.2210
G01 X7.9952 Y28.2299
G01 X8.0000 Y28.2356
G01 X8.0077 Y28.2437
G01 X8.0132 Y28.2488
G01 X8.0683 Y28.2973
G01 X8.0797 Y28.3059
G01 X8.0887 Y28.3117
G01 X8.0981 Y28.3168
G01 X8.1474 Y28.3398
G01 X8.3124 Y28.4553
G01 X8.4547 Y28.5976
G01 X8.5702 Y28.7626
G01 X8.6552 Y28.9450
G01 X8.7074 Y29.1395
G01 X8.7249 Y29.3400
G01 X8.7073 Y29.5406
G01 X8.6552 Y29.7350
G01 X8.5702 Y29.9174
G01 X8.4547 Y30.0824
G01 X8.3124 Y30.2247
G01 X8.1474 Y30.3402
G01 X8.0979 Y30.3633
G01 X8.0880 Y30.3688
G01 X8.0784 Y30.3749
G01 X8.0665 Y30.3843
G01 X8.0151 Y30.4288
G01 X8.0097 Y30.4337
G01 X8.0020 Y30.4416
G01 X7.9927 Y30.4530
G01 X7.9846 Y30.4652
G01 X7.9777 Y30.4782
G01 X7.9733 Y30.4883
G01 X7.9698 Y30.4987
G01 X7.9485 Y30.5692
G01 X7.9460 Y30.5801
G01 X7.9438 Y30.5948
G01 X7.9432 Y30.6060
G01 X7.9434 Y30.6171
G01 X7.9444 Y30.6283
G01 X7.9462 Y30.6393
G01 X7.9489 Y30.6501
G01 X7.9691 Y30.7209
G01 X7.9742 Y30.7349
G01 X7.9807 Y30.7483
G01 X7.9885 Y30.7610
G01 X7.9929 Y30.7670
G01 X8.0000 Y30.7756
G01 X8.0051 Y30.7811
G01 X8.0132 Y30.7888
G01 X8.0683 Y30.8373
G01 X8.0797 Y30.8459
G01 X8.0887 Y30.8517
G01 X8.0981 Y30.8568
G01 X8.1474 Y30.8798
G01 X8.3124 Y30.9953
G01 X8.4547 Y31.1376
G01 X8.5702 Y31.3026
G01 X8.6552 Y31.4850
G01 X8.7074 Y31.6795
G01 X8.7249 Y31.8800
G01 X8.7073 Y32.0806
G01 X8.6552 Y32.2750
G01 X8.5702 Y32.4574
G01 X8.4547 Y32.6224
G01 X8.3124 Y32.7647
G01 X8.1474 Y32.8802
G01 X8.0979 Y32.9033
G01 X8.0880 Y32.9088
G01 X8.0784 Y32.9149
G01 X8.0665 Y32.9243
G01 X8.0151 Y32.9688
G01 X8.0071 Y32.9763
G01 X8.0020 Y32.9816
G01 X7.9927 Y32.9930
G01 X7.9846 Y33.0052
G01 X7.9777 Y33.0182
G01 X7.9721 Y33.0318
G01 X7.9476 Y33.1128
G01 X7.9460 Y33.1201
G01 X7.9442 Y33.1311
G01 X7.9435 Y33.1385
G01 X7.9431 Y33.1497
G01 X7.9434 Y33.1571
G01 X7.9444 Y33.1683
G01 X7.9470 Y33.1829
G01 X7.9680 Y33.2573
G01 X7.9715 Y33.2679
G01 X7.9773 Y33.2817
G01 X7.9807 Y33.2883
G01 X7.9865 Y33.2979
G01 X7.9952 Y33.3099
G01 X8.0051 Y33.3211
G01 X8.0132 Y33.3288
G01 X8.0656 Y33.3750
G01 X8.0739 Y33.3817
G01 X8.0797 Y33.3859
G01 X8.0887 Y33.3917
G01 X8.0981 Y33.3968
G01 X8.1474 Y33.4198
G01 X8.3124 Y33.5353
G01 X8.4547 Y33.6776
G01 X8.5702 Y33.8426
G01 X8.6552 Y34.0250
G01 X8.7074 Y34.2195
G01 X8.7249 Y34.4200
G01 X8.7073 Y34.6206
G01 X8.6552 Y34.8150
G01 X8.5702 Y34.9974
G01 X8.4547 Y35.1624
G01 X8.3124 Y35.3047
G01 X8.1474 Y35.4202
G01 X8.0979 Y35.4433
G01 X8.0880 Y35.4488
G01 X8.0784 Y35.4549
G01 X8.0665 Y35.4643
G01 X8.0151 Y35.5088
G01 X8.0071 Y35.5163
G01 X8.0020 Y35.5216
G01 X7.9927 Y35.5330
G01 X7.9846 Y35.5452
G01 X7.9777 Y35.5582
G01 X7.9721 Y35.5718
G01 X7.9476 Y35.6528
G01 X7.9460 Y35.6601
G01 X7.9442 Y35.6711
G01 X7.9433 Y35.6822
G01 X7.9431 Y35.6897
G01 X7.9439 Y35.7046
G01 X7.9455 Y35.7156
G01 X7.9470 Y35.7229
G01 X7.9703 Y35.8044
G01 X7.9757 Y35.8183
G01 X7.9826 Y35.8315
G01 X7.9907 Y35.8440
G01 X8.0000 Y35.8556
G01 X8.0077 Y35.8637
G01 X8.0132 Y35.8688
G01 X8.0683 Y35.9173
G01 X8.0797 Y35.9259
G01 X8.0887 Y35.9317
G01 X8.0981 Y35.9368
G01 X8.1474 Y35.9598
G01 X8.3124 Y36.0753
G01 X8.4547 Y36.2176
G01 X8.5702 Y36.3826
G01 X8.6552 Y36.5650
G01 X8.7074 Y36.7595
G01 X8.7249 Y36.9600
G01 X8.7073 Y37.1606
G01 X8.6552 Y37.3550
G01 X8.5702 Y37.5374
G01 X8.4547 Y37.7024
G01 X8.3124 Y37.8447
G01 X8.1474 Y37.9602
G01 X7.9650 Y38.0452
G01 X7.7705 Y38.0974
G01 X7.5700 Y38.1149
G01 X7.3694 Y38.0973
G01 X7.1750 Y38.0452
G01 X6.9926 Y37.9602
G01 X6.8276 Y37.8447
G01 X6.6853 Y37.7024
G01 X6.5698 Y37.5374
G01 X6.4848 Y37.3550
G01 X6.4327 Y37.1605
G01 X6.4151 Y36.9600
G01 X6.4327 Y36.7595
G01 X6.4848 Y36.5650
G01 X6.5698 Y36.3826
G01 X6.6853 Y36.2176
G01 X6.8276 Y36.0753
G01 X6.9926 Y35.9598
G01 X7.0421 Y35.9367
G01 X7.0521 Y35.9312
G01 X7.0646 Y35.9229
G01 X7.0735 Y35.9157
G01 X7.1249 Y35.8712
G01 X7.1329 Y35.8637
G01 X7.1404 Y35.8556
G01 X7.1473 Y35.8470
G01 X7.1535 Y35.8379
G01 X7.1590 Y35.8284
G01 X7.1639 Y35.8185
G01 X7.1691 Y35.8048
G01 X7.1905 Y35.7344
G01 X7.1940 Y35.7199
G01 X7.1962 Y35.7052
G01 X7.1969 Y35.6903
G01 X7.1961 Y35.6754
G01 X7.1951 Y35.6681
G01 X7.1930 Y35.6571
G01 X7.1698 Y35.5756
G01 X7.1643 Y35.5617
G01 X7.1593 Y35.5517
G01 X7.1555 Y35.5453
G01 X7.1493 Y35.5360
G01 X7.1448 Y35.5301
G01 X7.1400 Y35.5244
G01 X7.1323 Y35.5163
G01 X7.0744 Y35.4650
G01 X7.0689 Y35.4605
G01 X7.0603 Y35.4541
G01 X7.0482 Y35.4465
G01 X7.0387 Y35.4417
G01 X6.9926 Y35.4202
G01 X6.8276 Y35.3047
G01 X6.6708 Y35.1480
G01 X6.6618 Y35.1400
G01 X6.6411 Y35.1234
G01 X6.6323 Y35.1168
G01 X6.6230 Y35.1108
G01 X6.6132 Y35.1056
G01 X6.6032 Y35.1011
G01 X6.5963 Y35.0985
G01 X6.5222 Y35.0766
G01 X6.5118 Y35.0739
G01 X6.5048 Y35.0726
G01 X6.4907 Y35.0709
G01 X6.4800 Y35.0705
G01 X4.4167 Y35.0705
G01 X4.3842 Y35.0633
G01 X4.3732 Y35.0615
G01 X4.3443 Y35.0582
G01 X4.3129 Y35.0474
G01 X4.3021 Y35.0444
G01 X4.2738 Y35.0379
G01 X4.2476 Y35.0253
G01 X4.2373 Y35.0210
G01 X4.2060 Y35.0098
G01 X4.1813 Y34.9944
G01 X4.1716 Y34.9889
G01 X4.1417 Y34.9743
G01 X4.1156 Y34.9537
G01 X4.1064 Y34.9473
G01 X4.0819 Y34.9318
G01 X2.7082 Y33.5581
G01 X2.6927 Y33.5336
G01 X2.6863 Y33.5244
G01 X2.6657 Y33.4983
G01 X2.6531 Y33.4721
G01 X2.6477 Y33.4623
G01 X2.6302 Y33.4340
G01 X2.6190 Y33.4027
G01 X2.6147 Y33.3924
G01 X2.6021 Y33.3662
G01 X2.5956 Y33.3379
G01 X2.5926 Y33.3272
G01 X2.5818 Y33.2957
G01 X2.5785 Y33.2668
G01 X2.5767 Y33.2558
G01 X2.5695 Y33.2233
G01 X2.5695 Y30.4927
G01 X2.5691 Y30.4818
G01 X2.5679 Y30.4709
G01 X2.5567 Y30.4132
G01 X2.5529 Y30.3993
G01 X2.5492 Y30.3892
G01 X2.5431 Y30.3761
G01 X2.5378 Y30.3667
G01 X2.5318 Y30.3578
G01 X2.4838 Y30.2975
G01 X2.4744 Y30.2867
G01 X2.4693 Y30.2817
G01 X2.4612 Y30.2747
G01 X2.4454 Y30.2631
G01 X2.2969 Y30.1146
G01 X2.1764 Y29.9425
G01 X2.0876 Y29.7522
G01 X2.0332 Y29.5493
G01 X2.0149 Y29.3400
G01 X2.0332 Y29.1307
G01 X2.0876 Y28.9278
G01 X2.1764 Y28.7375
G01 X2.2969 Y28.5654
G01 X2.4454 Y28.4169
G01 X2.6233 Y28.2922
G01 X2.6324 Y28.2849
G01 X2.6544 Y28.2658
G01 X2.6597 Y28.2608
G01 X2.6671 Y28.2527
G01 X2.6717 Y28.2471
G01 X2.6781 Y28.2383
G01 X2.6856 Y28.2258
G01 X2.7188 Y28.1602
G01 X2.7249 Y28.1466
G01 X2.7296 Y28.1324
G01 X2.7321 Y28.1215
G01 X2.7334 Y28.1142
G01 X2.7348 Y28.0994
G01 X2.7349 Y28.0882
G01 X2.7345 Y28.0808
G01 X2.7260 Y28.0002
G01 X2.7239 Y27.9892
G01 X2.7221 Y27.9820
G01 X2.7173 Y27.9679
G01 X2.7128 Y27.9576
G01 X2.7094 Y27.9510
G01 X2.7056 Y27.9446
G01 X2.6995 Y27.9353
G01 X2.6491 Y27.8720
G01 X2.6419 Y27.8641
G01 X2.6368 Y27.8590
G01 X2.6287 Y27.8520
G01 X2.6231 Y27.8476
G01 X2.4454 Y27.7231
G01 X2.2969 Y27.5746
G01 X2.1764 Y27.4025
G01 X2.0876 Y27.2122
G01 X2.0332 Y27.0093
G01 X2.0149 Y26.8000
G01 X2.0332 Y26.5907
G01 X2.0876 Y26.3878
G01 X2.1764 Y26.1975
G01 X2.2969 Y26.0254
G01 X2.4454 Y25.8769
G01 X2.6233 Y25.7522
G01 X2.6324 Y25.7449
G01 X2.6544 Y25.7258
G01 X2.6597 Y25.7208
G01 X2.6671 Y25.7127
G01 X2.6761 Y25.7013
G01 X2.6820 Y25.6921
G01 X2.6856 Y25.6858
G01 X2.7188 Y25.6202
G01 X2.7235 Y25.6100
G01 X2.7285 Y25.5960
G01 X2.7314 Y25.5852
G01 X2.7328 Y25.5779
G01 X2.7346 Y25.5631
G01 X2.7349 Y25.5557
G01 X2.7348 Y25.5445
G01 X2.7260 Y25.4602
G01 X2.7239 Y25.4492
G01 X2.7221 Y25.4420
G01 X2.7173 Y25.4279
G01 X2.7128 Y25.4176
G01 X2.7094 Y25.4110
G01 X2.7037 Y25.4014
G01 X2.6995 Y25.3953
G01 X2.6492 Y25.3322
G01 X2.6375 Y25.3197
G01 X2.6320 Y25.3147
G01 X2.6232 Y25.3077
G01 X2.4454 Y25.1831
G01 X2.2969 Y25.0346
G01 X2.1764 Y24.8625
G01 X2.0876 Y24.6722
G01 X2.0332 Y24.4693
G01 X2.0149 Y24.2600
G01 X2.0332 Y24.0507
G01 X2.0876 Y23.8478
G01 X2.1764 Y23.6575
G01 X2.2969 Y23.4854
G01 X2.4454 Y23.3369
G01 X2.6233 Y23.2122
G01 X2.6324 Y23.2049
G01 X2.6544 Y23.1858
G01 X2.6597 Y23.1808
G01 X2.6671 Y23.1727
G01 X2.6717 Y23.1671
G01 X2.6781 Y23.1583
G01 X2.6856 Y23.1458
G01 X2.7188 Y23.0802
G01 X2.7235 Y23.0700
G01 X2.7274 Y23.0596
G01 X2.7296 Y23.0524
G01 X2.7328 Y23.0379
G01 X2.7346 Y23.0231
G01 X2.7350 Y23.0119
G01 X2.7348 Y23.0045
G01 X2.7260 Y22.9202
G01 X2.7239 Y22.9092
G01 X2.7221 Y22.9020
G01 X2.7173 Y22.8879
G01 X2.7128 Y22.8776
G01 X2.7094 Y22.8710
G01 X2.7056 Y22.8646
G01 X2.6995 Y22.8553
G01 X2.6513 Y22.7948
G01 X2.6443 Y22.7866
G01 X2.6368 Y22.7790
G01 X2.6287 Y22.7720
G01 X2.6231 Y22.7676
G01 X2.4454 Y22.6431
G01 X2.2969 Y22.4946
G01 X2.1764 Y22.3225
G01 X2.0876 Y22.1322
G01 X2.0332 Y21.9293
G01 X2.0149 Y21.7200
G01 X2.0332 Y21.5107
G01 X2.0876 Y21.3078
G01 X2.1764 Y21.1175
G01 X2.2969 Y20.9454
G01 X2.4454 Y20.7969
G01 X2.6233 Y20.6722
G01 X2.6324 Y20.6649
G01 X2.6544 Y20.6458
G01 X2.6597 Y20.6408
G01 X2.6671 Y20.6327
G01 X2.6761 Y20.6213
G01 X2.6820 Y20.6121
G01 X2.6856 Y20.6058
G01 X2.7188 Y20.5402
G01 X2.7235 Y20.5300
G01 X2.7285 Y20.5160
G01 X2.7314 Y20.5052
G01 X2.7328 Y20.4979
G01 X2.7346 Y20.4831
G01 X2.7349 Y20.4682
G01 X2.7342 Y20.4571
G01 X2.7270 Y20.3876
G01 X2.7260 Y20.3802
G01 X2.7239 Y20.3692
G01 X2.7199 Y20.3549
G01 X2.7144 Y20.3410
G01 X2.7076 Y20.3278
G01 X2.6995 Y20.3153
G01 X2.6492 Y20.2522
G01 X2.6426 Y20.2447
G01 X2.6348 Y20.2372
G01 X2.6262 Y20.2300
G01 X2.6202 Y20.2256
G01 X2.4454 Y20.1031
G01 X2.2969 Y19.9546
G01 X2.1764 Y19.7825
G01 X2.0876 Y19.5922
G01 X2.0332 Y19.3893
G01 X2.0149 Y19.1800
G01 X2.0332 Y18.9707
G01 X2.0876 Y18.7678
G00 Z2.0000
G00 X4.0983 Y21.2422
G01 F60.00
G01 Z-0.0950
G01 F120.00
G01 X4.1036 Y21.2519
G01 X4.1122 Y21.2698
G01 X4.3035 Y21.2699
G01 X6.6579 Y18.9155
G01 X6.6609 Y18.9042
G01 X6.6632 Y18.8972
G01 X6.6923 Y18.8165
G01 X6.7322 Y18.7322
G01 X6.7801 Y18.6522
G01 X6.8356 Y18.5773
G01 X6.8982 Y18.5082
G01 X6.9673 Y18.4456
G01 X7.0422 Y18.3901
G01 X7.1158 Y18.3458
G01 X7.1287 Y18.3389
G01 X7.2065 Y18.3023
G01 X7.2942 Y18.2709
G01 X7.3847 Y18.2483
G01 X7.4769 Y18.2346
G01 X7.5700 Y18.2300
G01 X7.6631 Y18.2346
G01 X7.7553 Y18.2483
G01 X7.8458 Y18.2709
G01 X7.9335 Y18.3023
G01 X8.0178 Y18.3422
G01 X8.0978 Y18.3901
G01 X8.1727 Y18.4456
G01 X8.2418 Y18.5082
G01 X8.3044 Y18.5773
G01 X8.3599 Y18.6522
G01 X8.4042 Y18.7258
G01 X8.4111 Y18.7387
G01 X8.4477 Y18.8165
G01 X8.4768 Y18.8972
G01 X8.4811 Y18.9113
G01 X8.5001 Y18.9875
G01 X8.5030 Y19.0019
G01 X8.5154 Y19.0869
G01 X8.5200 Y19.1800
G01 X8.5154 Y19.2731
G01 X8.5030 Y19.3581
G01 X8.5001 Y19.3725
G01 X8.4811 Y19.4487
G01 X8.4768 Y19.4628
G01 X8.4477 Y19.5435
G01 X8.4078 Y19.6278
G01 X8.3599 Y19.7078
G01 X8.3089 Y19.7769
G01 X8.2996 Y19.7882
G01 X8.2468 Y19.8464
G01 X8.2364 Y19.8568
G01 X8.1727 Y19.9144
G01 X8.0978 Y19.9699
G01 X8.0178 Y20.0178
G01 X7.9335 Y20.0577
G01 X7.8458 Y20.0891
G01 X7.7553 Y20.1117
G01 X7.6631 Y20.1254
G01 X7.5737 Y20.1300
G01 X7.5626 Y20.1298
G01 X7.4769 Y20.1254
G01 X7.3847 Y20.1117
G01 X7.2942 Y20.0891
G01 X7.2133 Y20.0603
G01 X7.1997 Y20.0547
G01 X7.1222 Y20.0178
G01 X7.0484 Y19.9738
G01 X7.0362 Y19.9657
G01 X6.9702 Y19.9167
G01 X6.9645 Y19.9120
G01 X6.9488 Y19.8978
G01 X4.8083 Y22.0383
G01 X4.7811 Y22.0632
G01 X4.7698 Y22.0725
G01 X4.7401 Y22.0943
G01 X4.7054 Y22.1152
G01 X4.6956 Y22.1203
G01 X4.6623 Y22.1359
G01 X4.6207 Y22.1508
G01 X4.5778 Y22.1615
G01 X4.5341 Y22.1680
G01 X4.4900 Y22.1701
G01 X4.1122 Y22.1701
G01 X4.1036 Y22.1881
G01 X4.1001 Y22.1946
G01 X4.0515 Y22.2756
G01 X3.9975 Y22.3486
G01 X3.9882 Y22.3600
G01 X3.9271 Y22.4271
G01 X3.8600 Y22.4882
G01 X3.8486 Y22.4975
G01 X3.7816 Y22.5472
G01 X3.7725 Y22.5535
G01 X3.6914 Y22.6019
G01 X3.6094 Y22.6409
G01 X3.5958 Y22.6465
G01 X3.5103 Y22.6769
G01 X3.4223 Y22.6992
G01 X3.4078 Y22.7020
G01 X3.3180 Y22.7152
G01 X3.2237 Y22.7200
G01 X3.2126 Y22.7198
G01 X3.1293 Y22.7157
G01 X3.1147 Y22.7143
G01 X3.0249 Y22.7008
G01 X2.9368 Y22.6789
G01 X2.9227 Y22.6746
G01 X2.8373 Y22.6439
G01 X2.7552 Y22.6052
G01 X2.7422 Y22.5983
G01 X2.6644 Y22.5515
G01 X2.5914 Y22.4975
G01 X2.5800 Y22.4882
G01 X2.5129 Y22.4271
G01 X2.4518 Y22.3600
G01 X2.4425 Y22.3486
G01 X2.3885 Y22.2756
G01 X2.3381 Y22.1914
G01 X2.2961 Y22.1027
G01 X2.2631 Y22.0103
G01 X2.2392 Y21.9151
G01 X2.2248 Y21.8180
G01 X2.2200 Y21.7200
G01 X2.2248 Y21.6220
G01 X2.2392 Y21.5249
G01 X2.2631 Y21.4297
G01 X2.2961 Y21.3373
G01 X2.3381 Y21.2486
G01 X2.3885 Y21.1644
G01 X2.4470 Y21.0856
G01 X2.5129 Y21.0129
G01 X2.5856 Y20.9470
G01 X2.6644 Y20.8885
G01 X2.7486 Y20.8381
G01 X2.8373 Y20.7961
G01 X2.9297 Y20.7631
G01 X3.0249 Y20.7392
G01 X3.1220 Y20.7248
G01 X3.2200 Y20.7200
G01 X3.3180 Y20.7248
G01 X3.4151 Y20.7392
G01 X3.5103 Y20.7631
G01 X3.6027 Y20.7961
G01 X3.6914 Y20.8381
G01 X3.7756 Y20.8885
G01 X3.8544 Y20.9470
G01 X3.9271 Y21.0129
G01 X3.9930 Y21.0856
G01 X4.0515 Y21.1644
G01 X4.0983 Y21.2422
G00 Z2.0000
G00 X4.0983 Y23.7822
G01 F60.00
G01 Z-0.0950
G01 F120.00
G01 X4.1036 Y23.7919
G01 X4.1122 Y23.8098
G01 X4.4937 Y23.8099
G01 X4.5341 Y23.8120
G01 X4.5778 Y23.8185
G01 X4.6136 Y23.8273
G01 X4.6277 Y23.8315
G01 X4.6623 Y23.8441
G01 X4.6956 Y23.8597
G01 X4.7086 Y23.8666
G01 X4.7401 Y23.8857
G01 X4.7756 Y23.9120
G01 X4.8083 Y23.9417
G01 X6.9488 Y26.0822
G01 X6.9645 Y26.0680
G01 X6.9702 Y26.0633
G01 X7.0362 Y26.0143
G01 X7.0453 Y26.0081
G01 X7.1222 Y25.9622
G01 X7.1997 Y25.9253
G01 X7.2099 Y25.9209
G01 X7.2942 Y25.8909
G01 X7.3847 Y25.8683
G01 X7.4769 Y25.8546
G01 X7.5700 Y25.8500
G01 X7.6631 Y25.8546
G01 X7.7553 Y25.8683
G01 X7.8458 Y25.8909
G01 X7.9267 Y25.9197
G01 X7.9403 Y25.9253
G01 X8.0113 Y25.9589
G01 X8.0242 Y25.9658
G01 X8.0978 Y26.0101
G01 X8.1669 Y26.0611
G01 X8.1755 Y26.0680
G01 X8.2418 Y26.1282
G01 X8.3044 Y26.1973
G01 X8.3599 Y26.2722
G01 X8.4078 Y26.3522
G01 X8.4477 Y26.4365
G01 X8.4791 Y26.5242
G01 X8.5017 Y26.6147
G01 X8.5154 Y26.7069
G01 X8.5200 Y26.8000
G01 X8.5154 Y26.8931
G01 X8.5017 Y26.9853
G01 X8.4791 Y27.0758
G01 X8.4477 Y27.1635
G01 X8.4078 Y27.2478
G01 X8.3599 Y27.3278
G01 X8.3089 Y27.3969
G01 X8.3020 Y27.4055
G01 X8.2418 Y27.4718
G01 X8.1727 Y27.5344
G01 X8.0978 Y27.5899
G01 X8.0178 Y27.6378
G01 X7.9335 Y27.6777
G01 X7.8458 Y27.7091
G01 X7.7553 Y27.7317
G01 X7.6704 Y27.7445
G01 X7.6558 Y27.7460
G01 X7.5774 Y27.7498
G01 X7.5626 Y27.7498
G01 X7.4769 Y27.7454
G01 X7.3919 Y27.7330
G01 X7.3775 Y27.7301
G01 X7.2942 Y27.7091
G01 X7.2065 Y27.6777
G01 X7.1222 Y27.6378
G01 X7.0422 Y27.5899
G01 X6.9673 Y27.5344
G01 X6.8982 Y27.4718
G01 X6.8356 Y27.4027
G01 X6.7843 Y27.3338
G01 X6.7762 Y27.3216
G01 X6.7322 Y27.2478
G01 X6.6953 Y27.1703
G01 X6.6897 Y27.1567
G01 X6.6632 Y27.0828
G01 X6.6609 Y27.0758
G01 X6.6579 Y27.0645
G01 X4.3035 Y24.7101
G01 X4.1122 Y24.7101
G01 X4.1036 Y24.7281
G01 X4.1001 Y24.7346
G01 X4.0554 Y24.8094
G01 X4.0494 Y24.8186
G01 X3.9930 Y24.8944
G01 X3.9271 Y24.9671
G01 X3.8544 Y25.0330
G01 X3.7816 Y25.0872
G01 X3.7694 Y25.0954
G01 X3.6978 Y25.1383
G01 X3.6881 Y25.1436
G01 X3.6094 Y25.1809
G01 X3.5958 Y25.1865
G01 X3.5103 Y25.2169
G01 X3.4223 Y25.2392
G01 X3.4078 Y25.2420
G01 X3.3180 Y25.2552
G01 X3.2200 Y25.2600
G01 X3.1293 Y25.2557
G01 X3.1147 Y25.2543
G01 X3.0249 Y25.2408
G01 X2.9368 Y25.2189
G01 X2.9227 Y25.2146
G01 X2.8373 Y25.1839
G01 X2.7552 Y25.1452
G01 X2.7422 Y25.1383
G01 X2.6644 Y25.0915
G01 X2.5914 Y25.0375
G01 X2.5800 Y25.0282
G01 X2.5129 Y24.9671
G01 X2.4518 Y24.9000
G01 X2.4425 Y24.8886
G01 X2.3885 Y24.8156
G01 X2.3381 Y24.7314
G01 X2.2961 Y24.6427
G01 X2.2631 Y24.5503
G01 X2.2392 Y24.4551
G01 X2.2248 Y24.3580
G01 X2.2200 Y24.2600
G01 X2.2248 Y24.1620
G01 X2.2392 Y24.0649
G01 X2.2631 Y23.9697
G01 X2.2961 Y23.8773
G01 X2.3381 Y23.7886
G01 X2.3885 Y23.7044
G01 X2.4470 Y23.6256
G01 X2.5129 Y23.5529
G01 X2.5856 Y23.4870
G01 X2.6644 Y23.4285
G01 X2.7486 Y23.3781
G01 X2.8373 Y23.3361
G01 X2.9297 Y23.3031
G01 X3.0249 Y23.2792
G01 X3.1220 Y23.2648
G01 X3.2200 Y23.2600
G01 X3.3180 Y23.2648
G01 X3.4151 Y23.2792
G01 X3.5103 Y23.3031
G01 X3.6027 Y23.3361
G01 X3.6914 Y23.3781
G01 X3.7756 Y23.4285
G01 X3.8544 Y23.4870
G01 X3.9271 Y23.5529
G01 X3.9930 Y23.6256
G01 X4.0515 Y23.7044
G01 X4.0983 Y23.7822
G00 Z2.0000
G00 X8.3619 Y23.7353
G01 F60.00
G01 Z-0.0950
G01 F120.00
G01 X8.4065 Y23.8098
G01 X11.9235 Y23.8099
G01 X14.1999 Y21.5335
G01 X14.1999 Y7.7500
G01 X14.2020 Y7.7059
G01 X14.2072 Y7.6694
G01 X14.2101 Y7.6550
G01 X14.2173 Y7.6264
G01 X14.2203 Y7.6158
G01 X14.2341 Y7.5777
G01 X14.2513 Y7.5411
G01 X14.2566 Y7.5314
G01 X14.2718 Y7.5061
G01 X14.2800 Y7.4939
G01 X14.3020 Y7.4644
G01 X14.3266 Y7.4370
G01 X15.3434 Y6.4200
G01 X15.0513 Y6.4200
G01 X15.0440 Y6.4196
G01 X15.0330 Y6.4184
G01 X15.0221 Y6.4164
G01 X15.0150 Y6.4146
G01 X15.0045 Y6.4112
G01 X14.9942 Y6.4071
G01 X14.9876 Y6.4040
G01 X14.9779 Y6.3987
G01 X14.9686 Y6.3926
G01 X14.9627 Y6.3883
G01 X14.9543 Y6.3811
G01 X14.9464 Y6.3734
G01 X14.9414 Y6.3680
G01 X14.9345 Y6.3594
G01 X14.9283 Y6.3502
G01 X14.9227 Y6.3407
G01 X14.9179 Y6.3308
G01 X14.9138 Y6.3205
G01 X14.9104 Y6.3100
G01 X14.9079 Y6.2993
G01 X14.9057 Y6.2847
G01 X14.9050 Y6.2700
G01 X14.9050 Y4.5663
G01 X14.9061 Y4.5516
G01 X14.9079 Y4.5407
G01 X14.9104 Y4.5300
G01 X14.9151 Y4.5160
G01 X14.9194 Y4.5059
G01 X14.9245 Y4.4961
G01 X14.9303 Y4.4867
G01 X14.9390 Y4.4748
G01 X14.9489 Y4.4639
G01 X14.9543 Y4.4589
G01 X14.9627 Y4.4517
G01 X14.9748 Y4.4433
G01 X14.9876 Y4.4360
G01 X14.9976 Y4.4314
G01 X15.0045 Y4.4288
G01 X15.0186 Y4.4245
G01 X15.0330 Y4.4216
G01 X15.0403 Y4.4207
G01 X15.0513 Y4.4200
G01 X16.7550 Y4.4200
G01 X16.7697 Y4.4207
G01 X16.7843 Y4.4229
G01 X16.7950 Y4.4254
G01 X16.8021 Y4.4276
G01 X16.8158 Y4.4329
G01 X16.8257 Y4.4377
G01 X16.8352 Y4.4433
G01 X16.8444 Y4.4495
G01 X16.8530 Y4.4564
G01 X16.8611 Y4.4639
G01 X16.8686 Y4.4720
G01 X16.8755 Y4.4806
G01 X16.8797 Y4.4867
G01 X16.8855 Y4.4961
G01 X16.8890 Y4.5026
G01 X16.8936 Y4.5126
G01 X16.8974 Y4.5229
G01 X16.9005 Y4.5336
G01 X16.9021 Y4.5407
G01 X16.9039 Y4.5516
G01 X16.9048 Y4.5626
G01 X16.9050 Y6.2700
G01 X16.9043 Y6.2847
G01 X16.9028 Y6.2956
G01 X16.9014 Y6.3029
G01 X16.8996 Y6.3100
G01 X16.8962 Y6.3205
G01 X16.8936 Y6.3274
G01 X16.8890 Y6.3374
G01 X16.8817 Y6.3502
G01 X16.8755 Y6.3594
G01 X16.8710 Y6.3652
G01 X16.8636 Y6.3734
G01 X16.8584 Y6.3786
G01 X16.8530 Y6.3836
G01 X16.8444 Y6.3905
G01 X16.8383 Y6.3947
G01 X16.8289 Y6.4005
G01 X16.8224 Y6.4040
G01 X16.8124 Y6.4086
G01 X16.8055 Y6.4112
G01 X16.7950 Y6.4146
G01 X16.7843 Y6.4171
G01 X16.7770 Y6.4184
G01 X16.7660 Y6.4196
G01 X16.7550 Y6.4200
G01 X16.3552 Y6.4200
G01 X16.3551 Y6.4987
G01 X16.3530 Y6.5391
G01 X16.3465 Y6.5828
G01 X16.3368 Y6.6221
G01 X16.3335 Y6.6327
G01 X16.3209 Y6.6673
G01 X16.3020 Y6.7072
G01 X16.2793 Y6.7451
G01 X16.2530 Y6.7806
G01 X16.2233 Y6.8133
G01 X15.1001 Y7.9365
G01 X15.1001 Y21.7200
G01 X15.0980 Y21.7641
G01 X15.0915 Y21.8078
G01 X15.0808 Y21.8507
G01 X15.0685 Y21.8854
G01 X15.0644 Y21.8956
G01 X15.0470 Y21.9322
G01 X15.0243 Y21.9701
G01 X14.9980 Y22.0056
G01 X14.9683 Y22.0383
G01 X12.4283 Y24.5783
G01 X12.4011 Y24.6032
G01 X12.3898 Y24.6125
G01 X12.3601 Y24.6343
G01 X12.3286 Y24.6534
G01 X12.3156 Y24.6603
G01 X12.2823 Y24.6759
G01 X12.2477 Y24.6885
G01 X12.2371 Y24.6918
G01 X12.1978 Y24.7015
G01 X12.1614 Y24.7071
G01 X12.1468 Y24.7085
G01 X12.1100 Y24.7101
G01 X8.4065 Y24.7101
G01 X8.3638 Y24.7816
G01 X8.3557 Y24.7938
G01 X8.3044 Y24.8627
G01 X8.2468 Y24.9264
G01 X8.2364 Y24.9368
G01 X8.1727 Y24.9944
G01 X8.1038 Y25.0457
G01 X8.0916 Y25.0538
G01 X8.0178 Y25.0978
G01 X7.9403 Y25.1347
G01 X7.9267 Y25.1403
G01 X7.8458 Y25.1691
G01 X7.7625 Y25.1901
G01 X7.7481 Y25.1930
G01 X7.6631 Y25.2054
G01 X7.5737 Y25.2100
G01 X7.5626 Y25.2098
G01 X7.4769 Y25.2054
G01 X7.3919 Y25.1930
G01 X7.3775 Y25.1901
G01 X7.2942 Y25.1691
G01 X7.2133 Y25.1403
G01 X7.1997 Y25.1347
G01 X7.1222 Y25.0978
G01 X7.0484 Y25.0538
G01 X7.0362 Y25.0457
G01 X6.9673 Y24.9944
G01 X6.9036 Y24.9368
G01 X6.8932 Y24.9264
G01 X6.8356 Y24.8627
G01 X6.7801 Y24.7878
G01 X6.7322 Y24.7078
G01 X6.6923 Y24.6235
G01 X6.6609 Y24.5358
G01 X6.6383 Y24.4453
G01 X6.6246 Y24.3531
G01 X6.6200 Y24.2600
G01 X6.6246 Y24.1669
G01 X6.6383 Y24.0747
G01 X6.6609 Y23.9842
G01 X6.6923 Y23.8965
G01 X6.7322 Y23.8122
G01 X6.7801 Y23.7322
G01 X6.8356 Y23.6573
G01 X6.8982 Y23.5882
G01 X6.9673 Y23.5256
G01 X7.0422 Y23.4701
G01 X7.1222 Y23.4222
G01 X7.2065 Y23.3823
G01 X7.2942 Y23.3509
G01 X7.3847 Y23.3283
G01 X7.4769 Y23.3146
G01 X7.5700 Y23.3100
G01 X7.6631 Y23.3146
G01 X7.7553 Y23.3283
G01 X7.8458 Y23.3509
G01 X7.9335 Y23.3823
G01 X8.0178 Y23.4222
G01 X8.0978 Y23.4701
G01 X8.1727 Y23.5256
G01 X8.2418 Y23.5882
G01 X8.3044 Y23.6573
G01 X8.3557 Y23.7262
G01 X8.3619 Y23.7353
G00 Z2.0000
G00 X8.3619 Y21.1953
G01 F60.00
G01 Z-0.0950
G01 F120.00
G01 X8.4065 Y21.2698
G01 X9.3835 Y21.2699
G01 X10.3899 Y20.2635
G01 X10.3899 Y8.9900
G01 X10.3915 Y8.9532
G01 X10.3929 Y8.9386
G01 X10.3985 Y8.9022
G01 X10.4092 Y8.8593
G01 X10.4241 Y8.8177
G01 X10.4397 Y8.7844
G01 X10.4466 Y8.7714
G01 X10.4657 Y8.7399
G01 X10.4875 Y8.7102
G01 X10.4944 Y8.7016
G01 X10.5191 Y8.6743
G01 X12.8922 Y6.3012
G01 X12.8094 Y6.2515
G01 X12.7306 Y6.1930
G01 X12.6579 Y6.1271
G01 X12.5968 Y6.0600
G01 X12.5875 Y6.0486
G01 X12.5335 Y5.9756
G01 X12.4867 Y5.8978
G01 X12.4798 Y5.8848
G01 X12.4411 Y5.8027
G01 X12.4104 Y5.7173
G01 X12.4061 Y5.7032
G01 X12.3858 Y5.6223
G01 X12.3830 Y5.6078
G01 X12.3698 Y5.5180
G01 X12.3650 Y5.4200
G01 X12.3698 Y5.3220
G01 X12.3842 Y5.2249
G01 X12.4081 Y5.1297
G01 X12.4411 Y5.0373
G01 X12.4831 Y4.9486
G01 X12.5296 Y4.8706
G01 X12.5378 Y4.8584
G01 X12.5920 Y4.7856
G01 X12.6528 Y4.7182
G01 X12.6632 Y4.7078
G01 X12.7250 Y4.6518
G01 X12.7364 Y4.6425
G01 X12.8094 Y4.5885
G01 X12.8936 Y4.5381
G01 X12.9823 Y4.4961
G01 X13.0677 Y4.4654
G01 X13.0818 Y4.4611
G01 X13.1627 Y4.4408
G01 X13.1772 Y4.4380
G01 X13.2670 Y4.4248
G01 X13.3650 Y4.4200
G01 X13.4630 Y4.4248
G01 X13.5528 Y4.4380
G01 X13.5673 Y4.4408
G01 X13.6553 Y4.4631
G01 X13.7477 Y4.4961
G01 X13.8298 Y4.5348
G01 X13.8428 Y4.5417
G01 X13.9144 Y4.5846
G01 X13.9266 Y4.5928
G01 X13.9994 Y4.6470
G01 X14.0668 Y4.7078
G01 X14.0772 Y4.7182
G01 X14.1380 Y4.7856
G01 X14.1965 Y4.8644
G01 X14.2469 Y4.9486
G01 X14.2889 Y5.0373
G01 X14.3219 Y5.1297
G01 X14.3458 Y5.2249
G01 X14.3602 Y5.3220
G01 X14.3648 Y5.4126
G01 X14.3648 Y5.4274
G01 X14.3602 Y5.5180
G01 X14.3470 Y5.6078
G01 X14.3442 Y5.6223
G01 X14.3239 Y5.7032
G01 X14.3196 Y5.7173
G01 X14.2889 Y5.8027
G01 X14.2486 Y5.8881
G01 X14.2433 Y5.8978
G01 X14.2004 Y5.9694
G01 X14.1922 Y5.9816
G01 X14.1380 Y6.0544
G01 X14.0721 Y6.1271
G01 X13.9994 Y6.1930
G01 X13.9236 Y6.2494
G01 X13.9144 Y6.2554
G01 X13.8396 Y6.3001
G01 X13.8331 Y6.3036
G01 X13.8152 Y6.3122
G01 X13.8150 Y6.4724
G01 X13.8135 Y6.5018
G01 X13.8126 Y6.5128
G01 X13.8072 Y6.5492
G01 X13.8049 Y6.5600
G01 X13.7958 Y6.5957
G01 X13.7835 Y6.6304
G01 X13.7794 Y6.6406
G01 X13.7637 Y6.6739
G01 X13.7584 Y6.6836
G01 X13.7393 Y6.7151
G01 X13.7175 Y6.7448
G01 X13.7082 Y6.7561
G01 X13.6833 Y6.7833
G01 X11.2901 Y9.1765
G01 X11.2901 Y20.4500
G01 X11.2885 Y20.4868
G01 X11.2871 Y20.5014
G01 X11.2815 Y20.5378
G01 X11.2708 Y20.5807
G01 X11.2585 Y20.6154
G01 X11.2529 Y20.6290
G01 X11.2370 Y20.6622
G01 X11.2182 Y20.6939
G01 X11.2100 Y20.7061
G01 X11.1880 Y20.7356
G01 X11.1583 Y20.7683
G01 X9.8857 Y22.0409
G01 X9.8556 Y22.0680
G01 X9.8261 Y22.0900
G01 X9.8170 Y22.0963
G01 X9.7886 Y22.1134
G01 X9.7789 Y22.1187
G01 X9.7456 Y22.1344
G01 X9.7354 Y22.1385
G01 X9.7007 Y22.1508
G01 X9.6578 Y22.1615
G01 X9.6141 Y22.1680
G01 X9.5737 Y22.1701
G01 X8.4065 Y22.1701
G01 X8.3638 Y22.2416
G01 X8.3557 Y22.2538
G01 X8.3044 Y22.3227
G01 X8.2468 Y22.3864
G01 X8.2364 Y22.3968
G01 X8.1727 Y22.4544
G01 X8.1038 Y22.5057
G01 X8.0916 Y22.5138
G01 X8.0178 Y22.5578
G01 X7.9403 Y22.5947
G01 X7.9267 Y22.6003
G01 X7.8458 Y22.6291
G01 X7.7625 Y22.6501
G01 X7.7481 Y22.6530
G01 X7.6631 Y22.6654
G01 X7.5774 Y22.6698
G01 X7.5626 Y22.6698
G01 X7.4769 Y22.6654
G01 X7.3919 Y22.6530
G01 X7.3775 Y22.6501
G01 X7.2942 Y22.6291
G01 X7.2133 Y22.6003
G01 X7.1997 Y22.5947
G01 X7.1222 Y22.5578
G01 X7.0484 Y22.5138
G01 X7.0362 Y22.5057
G01 X6.9673 Y22.4544
G01 X6.9036 Y22.3968
G01 X6.8932 Y22.3864
G01 X6.8356 Y22.3227
G01 X6.7801 Y22.2478
G01 X6.7322 Y22.1678
G01 X6.6923 Y22.0835
G01 X6.6609 Y21.9958
G01 X6.6383 Y21.9053
G01 X6.6246 Y21.8131
G01 X6.6200 Y21.7200
G01 X6.6246 Y21.6269
G01 X6.6383 Y21.5347
G01 X6.6609 Y21.4442
G01 X6.6923 Y21.3565
G01 X6.7322 Y21.2722
G01 X6.7801 Y21.1922
G01 X6.8356 Y21.1173
G01 X6.8982 Y21.0482
G01 X6.9673 Y20.9856
G01 X7.0422 Y20.9301
G01 X7.1222 Y20.8822
G01 X7.2065 Y20.8423
G01 X7.2942 Y20.8109
G01 X7.3847 Y20.7883
G01 X7.4769 Y20.7746
G01 X7.5700 Y20.7700
G01 X7.6631 Y20.7746
G01 X7.7553 Y20.7883
G01 X7.8458 Y20.8109
G01 X7.9335 Y20.8423
G01 X8.0178 Y20.8822
G01 X8.0978 Y20.9301
G01 X8.1727 Y20.9856
G01 X8.2418 Y21.0482
G01 X8.3044 Y21.1173
G01 X8.3557 Y21.1862
G01 X8.3619 Y21.1953
G00 Z2.0000
G00 X5.4689 Y29.6832
G01 F60.00
G01 Z-0.0950
G01 F120.00
G01 X5.4417 Y29.6583
G01 X3.5326 Y27.7492
G01 X3.5138 Y27.7558
G01 X3.5067 Y27.7580
G01 X3.4223 Y27.7792
G01 X3.4115 Y27.7815
G01 X3.3180 Y27.7952
G01 X3.2237 Y27.8000
G01 X3.2126 Y27.7998
G01 X3.1293 Y27.7957
G01 X3.1147 Y27.7943
G01 X3.0249 Y27.7808
G01 X2.9297 Y27.7569
G01 X2.8442 Y27.7265
G01 X2.8306 Y27.7209
G01 X2.7486 Y27.6819
G01 X2.6644 Y27.6315
G01 X2.5856 Y27.5730
G01 X2.5182 Y27.5122
G01 X2.5078 Y27.5018
G01 X2.4518 Y27.4400
G01 X2.4447 Y27.4315
G01 X2.3885 Y27.3556
G01 X2.3381 Y27.2714
G01 X2.2961 Y27.1827
G01 X2.2631 Y27.0903
G01 X2.2392 Y26.9951
G01 X2.2248 Y26.8980
G01 X2.2200 Y26.8000
G01 X2.2248 Y26.7020
G01 X2.2392 Y26.6049
G01 X2.2631 Y26.5097
G01 X2.2961 Y26.4173
G01 X2.3381 Y26.3286
G01 X2.3885 Y26.2444
G01 X2.4470 Y26.1656
G01 X2.5129 Y26.0929
G01 X2.5800 Y26.0318
G01 X2.5885 Y26.0247
G01 X2.6644 Y25.9685
G01 X2.7486 Y25.9181
G01 X2.8373 Y25.8761
G01 X2.9227 Y25.8454
G01 X2.9368 Y25.8411
G01 X3.0177 Y25.8208
G01 X3.0322 Y25.8180
G01 X3.1220 Y25.8048
G01 X3.2200 Y25.8000
G01 X3.3180 Y25.8048
G01 X3.4151 Y25.8192
G01 X3.5103 Y25.8431
G01 X3.5958 Y25.8735
G01 X3.6094 Y25.8791
G01 X3.6848 Y25.9148
G01 X3.6978 Y25.9217
G01 X3.7756 Y25.9685
G01 X3.8486 Y26.0225
G01 X3.8572 Y26.0294
G01 X3.9271 Y26.0929
G01 X3.9882 Y26.1600
G01 X3.9975 Y26.1714
G01 X4.0515 Y26.2444
G01 X4.1019 Y26.3286
G01 X4.1409 Y26.4106
G01 X4.1465 Y26.4242
G01 X4.1746 Y26.5027
G01 X4.1780 Y26.5133
G01 X4.2008 Y26.6049
G01 X4.2143 Y26.6947
G01 X4.2157 Y26.7093
G01 X4.2198 Y26.7926
G01 X4.2200 Y26.8037
G01 X4.2152 Y26.8980
G01 X4.2015 Y26.9915
G01 X4.1992 Y27.0023
G01 X4.1780 Y27.0867
G01 X4.1758 Y27.0938
G01 X4.1692 Y27.1126
G01 X5.9465 Y28.8899
G01 X6.7335 Y28.8899
G01 X6.7801 Y28.8122
G01 X6.8311 Y28.7431
G01 X6.8404 Y28.7318
G01 X6.8982 Y28.6682
G01 X6.9673 Y28.6056
G01 X7.0362 Y28.5543
G01 X7.0484 Y28.5462
G01 X7.1222 Y28.5022
G01 X7.2065 Y28.4623
G01 X7.2872 Y28.4332
G01 X7.3013 Y28.4289
G01 X7.3847 Y28.4083
G01 X7.4769 Y28.3946
G01 X7.5626 Y28.3902
G01 X7.5774 Y28.3902
G01 X7.6631 Y28.3946
G01 X7.7553 Y28.4083
G01 X7.8387 Y28.4289
G01 X7.8528 Y28.4332
G01 X7.9267 Y28.4597
G01 X7.9403 Y28.4653
G01 X8.0178 Y28.5022
G01 X8.0978 Y28.5501
G01 X8.1727 Y28.6056
G01 X8.2364 Y28.6632
G01 X8.2468 Y28.6736
G01 X8.2996 Y28.7318
G01 X8.3089 Y28.7431
G01 X8.3599 Y28.8122
G01 X8.4078 Y28.8922
G01 X8.4477 Y28.9765
G01 X8.4768 Y29.0572
G01 X8.4811 Y29.0713
G01 X8.5001 Y29.1475
G01 X8.5024 Y29.1583
G01 X8.5154 Y29.2469
G01 X8.5200 Y29.3400
G01 X8.5154 Y29.4331
G01 X8.5017 Y29.5253
G01 X8.4791 Y29.6158
G01 X8.4477 Y29.7035
G01 X8.4078 Y29.7878
G01 X8.3599 Y29.8678
G01 X8.3044 Y29.9427
G01 X8.2418 Y30.0118
G01 X8.1727 Y30.0744
G01 X8.0978 Y30.1299
G01 X8.0178 Y30.1778
G01 X7.9335 Y30.2177
G01 X7.8458 Y30.2491
G01 X7.7625 Y30.2701
G01 X7.7517 Y30.2724
G01 X7.6631 Y30.2854
G01 X7.5774 Y30.2898
G01 X7.5626 Y30.2898
G01 X7.4842 Y30.2860
G01 X7.4696 Y30.2845
G01 X7.3847 Y30.2717
G01 X7.2942 Y30.2491
G01 X7.2065 Y30.2177
G01 X7.1287 Y30.1811
G01 X7.1158 Y30.1742
G01 X7.0484 Y30.1338
G01 X7.0362 Y30.1257
G01 X6.9673 Y30.0744
G01 X6.8982 Y30.0118
G01 X6.8404 Y29.9482
G01 X6.8311 Y29.9369
G01 X6.7801 Y29.8678
G01 X6.7335 Y29.7902
G01 X5.7600 Y29.7901
G01 X5.7195 Y29.7883
G01 X5.7086 Y29.7871
G01 X5.6794 Y29.7828
G01 X5.6650 Y29.7799
G01 X5.6293 Y29.7708
G01 X5.5877 Y29.7559
G01 X5.5478 Y29.7370
G01 X5.5161 Y29.7182
G01 X5.5039 Y29.7100
G01 X5.4773 Y29.6903
G01 X5.4689 Y29.6832
G00 Z2.0000
G00 X7.4696 Y30.9355
G01 F60.00
G01 Z-0.0950
G01 F120.00
G01 X7.4842 Y30.9340
G01 X7.5700 Y30.9300
G01 X7.6631 Y30.9346
G01 X7.7553 Y30.9483
G01 X7.8458 Y30.9709
G01 X7.9335 Y31.0023
G01 X8.0178 Y31.0422
G01 X8.0978 Y31.0901
G01 X8.1727 Y31.1456
G01 X8.2418 Y31.2082
G01 X8.3044 Y31.2773
G01 X8.3599 Y31.3522
G01 X8.4078 Y31.4322
G01 X8.4477 Y31.5165
G01 X8.4791 Y31.6042
G01 X8.5017 Y31.6947
G01 X8.5154 Y31.7869
G01 X8.5200 Y31.8800
G01 X8.5154 Y31.9731
G01 X8.5017 Y32.0653
G01 X8.4791 Y32.1558
G01 X8.4477 Y32.2435
G01 X8.4078 Y32.3278
G01 X8.3599 Y32.4078
G01 X8.3044 Y32.4827
G01 X8.2418 Y32.5518
G01 X8.1727 Y32.6144
G01 X8.0978 Y32.6699
G01 X8.0178 Y32.7178
G01 X7.9335 Y32.7577
G01 X7.8458 Y32.7891
G01 X7.7553 Y32.8117
G01 X7.6631 Y32.8254
G01 X7.5700 Y32.8300
G01 X7.4769 Y32.8254
G01 X7.3847 Y32.8117
G01 X7.2942 Y32.7891
G01 X7.2065 Y32.7577
G01 X7.1222 Y32.7178
G01 X7.0422 Y32.6699
G01 X6.9673 Y32.6144
G01 X6.8982 Y32.5518
G01 X6.8356 Y32.4827
G01 X6.7801 Y32.4078
G01 X6.7322 Y32.3278
G01 X6.6923 Y32.2435
G01 X6.6609 Y32.1558
G01 X6.6383 Y32.0653
G01 X6.6246 Y31.9731
G01 X6.6200 Y31.8800
G01 X6.6246 Y31.7869
G01 X6.6383 Y31.6947
G01 X6.6609 Y31.6042
G01 X6.6923 Y31.5165
G01 X6.7322 Y31.4322
G01 X6.7801 Y31.3522
G01 X6.8356 Y31.2773
G01 X6.8982 Y31.2082
G01 X6.9673 Y31.1456
G01 X7.0422 Y31.0901
G01 X7.1222 Y31.0422
G01 X7.2065 Y31.0023
G01 X7.2942 Y30.9709
G01 X7.3847 Y30.9483
G01 X7.4696 Y30.9355
G00 Z2.0000
G00 X7.4732 Y36.0150
G01 F60.00
G01 Z-0.0950
G01 F120.00
G01 X7.4842 Y36.0140
G01 X7.5700 Y36.0100
G01 X7.6631 Y36.0146
G01 X7.7553 Y36.0283
G01 X7.8458 Y36.0509
G01 X7.9335 Y36.0823
G01 X8.0178 Y36.1222
G01 X8.0978 Y36.1701
G01 X8.1727 Y36.2256
G01 X8.2418 Y36.2882
G01 X8.3044 Y36.3573
G01 X8.3599 Y36.4322
G01 X8.4078 Y36.5122
G01 X8.4477 Y36.5965
G01 X8.4791 Y36.6842
G01 X8.5017 Y36.7747
G01 X8.5154 Y36.8669
G01 X8.5200 Y36.9600
G01 X8.5154 Y37.0531
G01 X8.5017 Y37.1453
G01 X8.4791 Y37.2358
G01 X8.4477 Y37.3235
G01 X8.4078 Y37.4078
G01 X8.3599 Y37.4878
G01 X8.3044 Y37.5627
G01 X8.2418 Y37.6318
G01 X8.1727 Y37.6944
G01 X8.0978 Y37.7499
G01 X8.0178 Y37.7978
G01 X7.9335 Y37.8377
G01 X7.8458 Y37.8691
G01 X7.7553 Y37.8917
G01 X7.6631 Y37.9054
G01 X7.5700 Y37.9100
G01 X7.4769 Y37.9054
G01 X7.3847 Y37.8917
G01 X7.2942 Y37.8691
G01 X7.2065 Y37.8377
G01 X7.1222 Y37.7978
G01 X7.0422 Y37.7499
G01 X6.9673 Y37.6944
G01 X6.8982 Y37.6318
G01 X6.8356 Y37.5627
G01 X6.7801 Y37.4878
G01 X6.7322 Y37.4078
G01 X6.6923 Y37.3235
G01 X6.6609 Y37.2358
G01 X6.6383 Y37.1453
G01 X6.6246 Y37.0531
G01 X6.6200 Y36.9600
G01 X6.6246 Y36.8669
G01 X6.6383 Y36.7747
G01 X6.6609 Y36.6842
G01 X6.6923 Y36.5965
G01 X6.7322 Y36.5122
G01 X6.7801 Y36.4322
G01 X6.8356 Y36.3573
G01 X6.8982 Y36.2882
G01 X6.9673 Y36.2256
G01 X7.0422 Y36.1701
G01 X7.1222 Y36.1222
G01 X7.2065 Y36.0823
G01 X7.2942 Y36.0509
G01 X7.3847 Y36.0283
G01 X7.4732 Y36.0150
G00 Z2.0000
G00 X2.7717 Y33.1905
G01 F60.00
G01 Z-0.0950
G01 F120.00
G01 X2.7699 Y33.1500
G01 X2.7699 Y30.2322
G01 X2.7519 Y30.2236
G01 X2.7454 Y30.2201
G01 X2.6706 Y30.1754
G01 X2.6614 Y30.1694
G01 X2.5856 Y30.1130
G01 X2.5155 Y30.0497
G01 X2.5078 Y30.0418
G01 X2.4518 Y29.9800
G01 X2.4425 Y29.9686
G01 X2.3885 Y29.8956
G01 X2.3381 Y29.8114
G01 X2.2991 Y29.7294
G01 X2.2935 Y29.7158
G01 X2.2631 Y29.6303
G01 X2.2392 Y29.5351
G01 X2.2248 Y29.4380
G01 X2.2202 Y29.3474
G01 X2.2202 Y29.3326
G01 X2.2243 Y29.2493
G01 X2.2252 Y29.2383
G01 X2.2392 Y29.1449
G01 X2.2631 Y29.0497
G01 X2.2961 Y28.9573
G01 X2.3381 Y28.8686
G01 X2.3885 Y28.7844
G01 X2.4470 Y28.7056
G01 X2.5129 Y28.6329
G01 X2.5856 Y28.5670
G01 X2.6644 Y28.5085
G01 X2.7486 Y28.4581
G01 X2.8373 Y28.4161
G01 X2.9297 Y28.3831
G01 X3.0249 Y28.3592
G01 X3.1220 Y28.3448
G01 X3.2200 Y28.3400
G01 X3.3107 Y28.3443
G01 X3.3217 Y28.3452
G01 X3.4151 Y28.3592
G01 X3.5103 Y28.3831
G01 X3.6027 Y28.4161
G01 X3.6848 Y28.4548
G01 X3.6978 Y28.4617
G01 X3.7694 Y28.5046
G01 X3.7816 Y28.5128
G01 X3.8544 Y28.5670
G01 X3.9271 Y28.6329
G01 X3.9930 Y28.7056
G01 X4.0515 Y28.7844
G01 X4.1019 Y28.8686
G01 X4.1409 Y28.9506
G01 X4.1465 Y28.9642
G01 X4.1746 Y29.0427
G01 X4.1789 Y29.0568
G01 X4.2008 Y29.1449
G01 X4.2143 Y29.2347
G01 X4.2155 Y29.2457
G01 X4.2200 Y29.3400
G01 X4.2157 Y29.4307
G01 X4.2143 Y29.4453
G01 X4.2008 Y29.5351
G01 X4.1769 Y29.6303
G01 X4.1465 Y29.7158
G01 X4.1409 Y29.7294
G01 X4.1052 Y29.8048
G01 X4.1001 Y29.8146
G01 X4.0515 Y29.8956
G01 X3.9975 Y29.9686
G01 X3.9882 Y29.9800
G01 X3.9322 Y30.0418
G01 X3.9245 Y30.0497
G01 X3.8544 Y30.1130
G01 X3.7786 Y30.1694
G01 X3.7694 Y30.1754
G01 X3.6946 Y30.2201
G01 X3.6881 Y30.2236
G01 X3.6702 Y30.2322
G01 X3.6701 Y32.9635
G01 X4.6765 Y33.9699
G01 X6.7335 Y33.9699
G01 X6.7801 Y33.8922
G01 X6.8356 Y33.8173
G01 X6.8982 Y33.7482
G01 X6.9618 Y33.6904
G01 X6.9731 Y33.6811
G01 X7.0362 Y33.6343
G01 X7.0484 Y33.6262
G01 X7.1222 Y33.5822
G01 X7.1997 Y33.5453
G01 X7.2133 Y33.5397
G01 X7.2942 Y33.5109
G01 X7.3847 Y33.4883
G01 X7.4769 Y33.4746
G01 X7.5700 Y33.4700
G01 X7.6631 Y33.4746
G01 X7.7553 Y33.4883
G01 X7.8458 Y33.5109
G01 X7.9267 Y33.5397
G01 X7.9403 Y33.5453
G01 X8.0178 Y33.5822
G01 X8.0978 Y33.6301
G01 X8.1727 Y33.6856
G01 X8.2364 Y33.7432
G01 X8.2468 Y33.7536
G01 X8.2996 Y33.8118
G01 X8.3089 Y33.8231
G01 X8.3599 Y33.8922
G01 X8.4042 Y33.9658
G01 X8.4111 Y33.9787
G01 X8.4477 Y34.0565
G01 X8.4791 Y34.1442
G01 X8.5017 Y34.2347
G01 X8.5154 Y34.3269
G01 X8.5200 Y34.4200
G01 X8.5154 Y34.5131
G01 X8.5017 Y34.6053
G01 X8.4811 Y34.6887
G01 X8.4768 Y34.7028
G01 X8.4503 Y34.7767
G01 X8.4447 Y34.7903
G01 X8.4078 Y34.8678
G01 X8.3599 Y34.9478
G01 X8.3044 Y35.0227
G01 X8.2468 Y35.0864
G01 X8.2364 Y35.0968
G01 X8.1782 Y35.1496
G01 X8.1669 Y35.1589
G01 X8.0978 Y35.2099
G01 X8.0178 Y35.2578
